;FLAVOR:Marlin
;TIME:3365
;Filament used: 3.11396m
;Layer height: 0.21875
;MINX:24.198
;MINY:39.759
;MINZ:0.306
;MAXX:95.811
;MAXY:80.24
;MAXZ:19.316
;Generated with Cura_SteamEngine 4.3.0
M140 S65
M105
M190 S65
M104 S205
M105
M109 S205
M82 ;absolute extrusion mode
G21;(metric values)
G90;(absolute positioning)
M82;(set extruder to absolute mode)
M107;(start with the fan off)
G28;(Home the printer)
G92 E0;(Reset the extruder to 0)
G0 Z5 E5 F500;(Move up and prime the nozzle)
G0 X-1 Z0;(Move outside the printable area)
G1 Y60 E8 F500;(Draw a priming/wiping line to the rear)
G1 X-1;(Move a little closer to the print area)
G1 Y10 E16 F500;(draw more priming/wiping)
G1 E15 F250;(Small retract)
G92 E0;(Zero the extruder)
G92 E0
G92 E0
G1 F2400 E-2.5
;LAYER_COUNT:84
;LAYER:-5
M107
G0 F7200 X36.558 Y48.665 Z0.306
;TYPE:SUPPORT-INTERFACE
G1 F2400 E0
G1 F1125 X41.725 Y44.898 E0.6508
G1 X41.846 Y44.816 E0.66567
G1 X42.179 Y44.604 E0.70585
G1 X42.393 Y44.483 E0.73087
G1 X42.638 Y44.361 E0.75872
G1 X48.588 Y41.715 E1.42147
G1 X48.996 Y41.564 E1.46575
G1 X49.2 Y41.501 E1.48748
G1 X49.512 Y41.422 E1.52023
G1 X55.859 Y40.078 E2.18053
G1 X56.281 Y40.016 E2.22394
G1 X56.486 Y39.997 E2.2449
G1 X56.816 Y39.985 E2.2785
G1 X58.05 Y39.989 E2.4041
G1 X58.427 Y40.013 E2.44254
G1 X58.733 Y40.051 E2.47393
G1 X58.999 Y40.102 E2.50149
G1 X59.664 Y40.186 E2.56971
G1 X60.345 Y40.186 E2.63902
G1 X60.885 Y40.123 E2.69435
G1 X61.363 Y40.044 E2.74366
G1 X61.907 Y39.995 E2.79925
G1 X62.129 Y39.985 E2.82187
G1 X63.239 Y39.989 E2.93484
G1 X63.655 Y40.016 E2.97727
G1 X63.889 Y40.043 E3.00124
G1 X64.179 Y40.092 E3.03117
G1 X70.576 Y41.445 E3.69664
G1 X70.996 Y41.562 E3.74101
G1 X71.192 Y41.627 E3.76203
G1 X71.477 Y41.741 E3.79327
G1 X77.424 Y44.393 E4.45599
G1 X77.78 Y44.579 E4.49687
G1 X77.978 Y44.697 E4.52032
G1 X78.246 Y44.877 E4.55318
G1 X83.486 Y48.69 E5.21274
G1 X83.806 Y48.955 E5.25502
G1 X83.988 Y49.122 E5.28016
G1 X84.189 Y49.33 E5.3096
G1 X88.498 Y54.122 E5.96549
G1 X88.743 Y54.431 E6.00563
G1 X88.906 Y54.662 E6.0344
G1 X89.061 Y54.91 E6.06417
G1 X92.293 Y60.499 E6.72125
G1 X92.462 Y60.839 E6.7599
G1 X92.567 Y61.08 E6.78665
G1 X92.665 Y61.348 E6.81569
G1 X94.663 Y67.44 E7.46821
G1 X94.715 Y67.618 E7.48708
G1 X94.807 Y67.976 E7.5247
G1 X94.857 Y68.22 E7.55005
G1 X94.904 Y68.547 E7.58367
G1 X95.573 Y74.967 E8.24061
G1 X95.592 Y75.357 E8.28035
G1 X95.588 Y75.607 E8.3058
G1 X95.564 Y75.925 E8.33826
G1 X95.523 Y76.212 E8.36776
G1 X95.466 Y76.483 E8.39595
G1 X95.383 Y76.783 E8.42763
G1 X95.298 Y77.031 E8.45431
G1 X95.179 Y77.317 E8.48584
G1 X95.053 Y77.573 E8.51488
G1 X94.904 Y77.833 E8.54537
G1 X94.748 Y78.068 E8.57408
G1 X94.573 Y78.301 E8.60374
G1 X94.392 Y78.51 E8.63188
G1 X94.171 Y78.736 E8.66405
G1 X93.967 Y78.92 E8.69201
G1 X93.736 Y79.103 E8.722
G1 X93.489 Y79.275 E8.75264
G1 X93.255 Y79.417 E8.78049
G1 X92.993 Y79.552 E8.81049
G1 X92.722 Y79.673 E8.8407
G1 X92.462 Y79.769 E8.86891
G1 X92.175 Y79.854 E8.89937
G1 X91.914 Y79.915 E8.92665
G1 X91.591 Y79.964 E8.9599
G1 X91.089 Y80.006 E9.01117
G1 X90.872 Y80.015 E9.03327
G1 X72.95 Y80.011 E10.8573
G1 X72.573 Y79.987 E10.89575
G1 X72.275 Y79.95 E10.92631
G1 X71.991 Y79.895 E10.95575
G1 X71.7 Y79.819 E10.98636
G1 X71.44 Y79.734 E11.0142
G1 X71.163 Y79.624 E11.04454
G1 X70.902 Y79.5 E11.07395
G1 X70.647 Y79.359 E11.1036
G1 X70.408 Y79.207 E11.13243
G1 X70.161 Y79.025 E11.16366
G1 X69.96 Y78.856 E11.19038
G1 X69.727 Y78.636 E11.223
G1 X69.54 Y78.434 E11.25101
G1 X69.348 Y78.199 E11.2819
G1 X69.188 Y77.976 E11.30983
G1 X69.026 Y77.717 E11.34092
G1 X68.898 Y77.478 E11.36852
G1 X68.771 Y77.203 E11.39935
G1 X68.669 Y76.942 E11.42787
G1 X68.574 Y76.639 E11.46018
G1 X68.513 Y76.392 E11.48608
G1 X68.459 Y76.087 E11.5176
G1 X68.414 Y75.682 E11.55907
G1 X68.401 Y75.518 E11.57582
G1 X68.374 Y74.922 E11.63654
G1 X68.337 Y74.486 E11.68107
G1 X68.301 Y74.205 E11.70991
G1 X68.223 Y73.755 E11.75639
G1 X68.163 Y73.482 E11.78484
G1 X68.045 Y73.043 E11.8311
G1 X67.962 Y72.777 E11.85946
G1 X67.81 Y72.357 E11.90492
G1 X67.703 Y72.095 E11.93372
G1 X67.507 Y71.674 E11.98099
G1 X67.378 Y71.425 E12.00953
G1 X67.153 Y71.034 E12.05544
G1 X67.01 Y70.808 E12.08266
G1 X66.749 Y70.434 E12.12908
G1 X66.581 Y70.215 E12.15717
G1 X66.289 Y69.866 E12.20348
G1 X66.084 Y69.643 E12.23431
G1 X65.763 Y69.32 E12.28066
G1 X65.569 Y69.142 E12.30745
G1 X65.234 Y68.861 E12.35195
G1 X65.005 Y68.683 E12.38147
G1 X64.619 Y68.412 E12.42948
G1 X64.388 Y68.265 E12.45734
G1 X63.993 Y68.037 E12.50376
G1 X63.753 Y67.912 E12.5313
G1 X63.335 Y67.718 E12.5782
G1 X63.069 Y67.608 E12.6075
G1 X62.662 Y67.46 E12.65157
G1 X62.409 Y67.38 E12.67858
G1 X61.956 Y67.258 E12.72633
G1 X61.752 Y67.213 E12.74759
G1 X61.752 Y67.209 E12.748
G1 X61.073 Y67.073 E12.81847
G1 X60.408 Y66.984 E12.88676
G1 X59.72 Y66.979 E12.95678
G1 X59.312 Y67.04 E12.99877
G1 X59.305 Y67.008 E13.0021
G1 X58.05 Y67.264 E13.13246
G1 X57.503 Y67.407 E13.19
G1 X57.331 Y67.462 E13.20838
G1 X56.937 Y67.606 E13.25108
G1 X56.667 Y67.717 E13.28079
G1 X56.247 Y67.912 E13.32792
G1 X56.007 Y68.037 E13.35546
G1 X55.614 Y68.264 E13.40165
G1 X55.38 Y68.413 E13.42988
G1 X54.998 Y68.681 E13.47737
G1 X54.788 Y68.842 E13.50431
G1 X54.45 Y69.126 E13.54924
G1 X54.225 Y69.333 E13.58035
G1 X53.902 Y69.654 E13.6267
G1 X53.725 Y69.847 E13.65335
G1 X53.432 Y70.197 E13.69981
G1 X53.273 Y70.404 E13.72637
G1 X53.022 Y70.763 E13.77096
G1 X52.857 Y71.02 E13.80204
G1 X52.623 Y71.423 E13.84947
G1 X52.501 Y71.658 E13.87642
G1 X52.318 Y72.049 E13.92035
G1 X52.211 Y72.306 E13.94869
G1 X52.048 Y72.749 E13.99673
G1 X51.963 Y73.018 E14.02544
G1 X51.847 Y73.447 E14.07067
G1 X51.788 Y73.709 E14.098
G1 X51.707 Y74.167 E14.14534
G1 X51.669 Y74.449 E14.1743
G1 X51.63 Y74.893 E14.21966
G1 X51.602 Y75.499 E14.28141
G1 X51.588 Y75.676 E14.29948
G1 X51.547 Y76.048 E14.33757
G1 X51.501 Y76.318 E14.36544
G1 X51.432 Y76.604 E14.39538
G1 X51.343 Y76.887 E14.42558
G1 X51.24 Y77.16 E14.45527
G1 X51.13 Y77.405 E14.48261
G1 X50.983 Y77.682 E14.51452
G1 X50.83 Y77.93 E14.54418
G1 X50.677 Y78.146 E14.57112
G1 X50.475 Y78.397 E14.60391
G1 X50.296 Y78.593 E14.63093
G1 X50.08 Y78.801 E14.66145
G1 X49.839 Y79.005 E14.69358
G1 X49.632 Y79.158 E14.71978
G1 X49.378 Y79.324 E14.75066
G1 X49.135 Y79.46 E14.779
G1 X48.867 Y79.59 E14.80932
G1 X48.598 Y79.699 E14.83886
G1 X48.316 Y79.793 E14.86911
G1 X48.042 Y79.866 E14.89797
G1 X47.77 Y79.921 E14.92621
G1 X47.454 Y79.962 E14.95865
G1 X47.069 Y79.988 E14.99792
G1 X46.919 Y79.993 E15.01319
G1 X28.95 Y80.011 E16.84201
G1 X28.573 Y79.987 E16.88045
G1 X28.275 Y79.95 E16.91102
G1 X27.991 Y79.895 E16.94046
G1 X27.7 Y79.819 E16.97107
G1 X27.44 Y79.734 E16.99891
G1 X27.163 Y79.624 E17.02924
G1 X26.902 Y79.5 E17.05865
G1 X26.647 Y79.359 E17.08831
G1 X26.408 Y79.207 E17.11713
G1 X26.161 Y79.025 E17.14836
G1 X25.96 Y78.856 E17.17509
G1 X25.727 Y78.636 E17.2077
G1 X25.54 Y78.434 E17.23572
G1 X25.348 Y78.199 E17.2666
G1 X25.188 Y77.976 E17.29454
G1 X25.026 Y77.717 E17.32563
G1 X24.898 Y77.478 E17.35322
G1 X24.771 Y77.203 E17.38405
G1 X24.669 Y76.942 E17.41257
G1 X24.574 Y76.639 E17.44489
G1 X24.512 Y76.391 E17.47091
G1 X24.456 Y76.078 E17.50327
G1 X24.427 Y75.826 E17.52908
G1 X24.412 Y75.494 E17.56291
G1 X24.424 Y75.01 E17.61218
G1 X24.435 Y74.838 E17.62972
G1 X25.113 Y68.421 E18.28646
G1 X25.187 Y68.002 E18.32976
G1 X25.241 Y67.767 E18.3543
G1 X25.326 Y67.474 E18.38535
G1 X27.278 Y61.477 E19.02722
G1 X27.407 Y61.133 E19.06461
G1 X27.486 Y60.954 E19.08453
G1 X27.711 Y60.492 E19.13683
G1 X27.79 Y60.344 E19.1539
G1 X30.911 Y54.944 E19.78868
G1 X31.151 Y54.583 E19.8328
G1 X31.302 Y54.381 E19.85847
G1 X31.491 Y54.155 E19.88845
G1 X35.847 Y49.297 E20.55254
G1 X36.123 Y49.026 E20.5919
G1 X36.316 Y48.855 E20.61815
G1 X36.353 Y48.826 E20.62293
G0 F1012.5 X36.558 Y48.665
G0 F7200 X36.8 Y48.488
G1 F1125 X36.8 Y80.004 E23.8305
G0 F7200 X35.2 Y80.005
G1 F1125 X35.2 Y50.018 E26.88246
G0 F7200 X33.6 Y51.802
G1 F1125 X33.6 Y80.007 E29.75305
G0 F7200 X32 Y80.008
G1 F1125 X32 Y53.587 E32.44208
G0 F7200 X30.4 Y55.828
G1 F1125 X30.4 Y80.01 E34.90323
G0 F7200 X28.8 Y80.001
G1 F1125 X28.8 Y58.596 E37.08174
G0 F7200 X27.2 Y61.716
G1 F1125 X27.2 Y79.638 E38.90577
G0 F7200 X25.6 Y78.498
G1 F1125 X25.6 Y66.632 E40.11344
G0 F7200 X38.4 Y80.002
G1 F1125 X38.4 Y47.322 E43.43948
G0 F7200 X40 Y46.155
G1 F1125 X40 Y80 E46.88409
G0 F7200 X41.6 Y79.999
G1 F1125 X41.6 Y44.989 E50.44727
G0 F7200 X43.2 Y44.111
G1 F1125 X43.2 Y79.997 E54.09961
G0 F7200 X44.8 Y79.996
G1 F1125 X44.8 Y43.399 E57.8243
G0 F7200 X46.4 Y42.688
G1 F1125 X46.4 Y79.994 E61.62116
G0 F7200 X48 Y79.875
G1 F1125 X48 Y41.976 E65.47837
G0 F7200 X49.6 Y41.403
G1 F1125 X49.6 Y79.179 E69.32306
G0 F7200 X51.2 Y77.25
G1 F1125 X51.2 Y41.064 E73.00593
G0 F7200 X52.8 Y40.725
G1 F1125 X52.8 Y71.119 E76.09931
G0 F7200 X54.4 Y69.172
G1 F1125 X54.4 Y40.386 E79.02903
G0 F7200 X56 Y40.057
G1 F1125 X56 Y68.042 E81.87723
G0 F7200 X57.6 Y67.382
G1 F1125 X57.6 Y39.988 E84.66528
G0 F7200 X59.2 Y40.128
G1 F1125 X59.2 Y67.03 E87.40326
G0 F7200 X60.8 Y67.036
G1 F1125 X60.8 Y40.132 E90.14144
G0 F7200 X62.4 Y39.986
G1 F1125 X62.4 Y67.377 E92.92919
G0 F7200 X64 Y68.041
G1 F1125 X64 Y40.062 E95.77678
G0 F7200 X65.6 Y40.393
G1 F1125 X65.6 Y69.17 E98.70559
G0 F7200 X67.2 Y71.115
G1 F1125 X67.2 Y40.731 E101.79795
G0 F7200 X68.8 Y41.07
G1 F1125 X68.8 Y77.265 E105.48174
G0 F7200 X70.4 Y79.201
G1 F1125 X70.4 Y41.408 E109.32816
G0 F7200 X72 Y41.975
G1 F1125 X72 Y79.896 E113.1876
G0 F7200 X73.6 Y80.011
G1 F1125 X73.6 Y42.688 E116.98619
G0 F7200 X75.2 Y43.402
G1 F1125 X75.2 Y80.011 E120.71211
G0 F7200 X76.8 Y80.011
G1 F1125 X76.8 Y44.115 E124.36546
G0 F7200 X78.4 Y44.99
G1 F1125 X78.4 Y80.012 E127.92986
G0 F7200 X80 Y80.012
G1 F1125 X80 Y46.154 E131.37579
G0 F7200 X81.6 Y47.318
G1 F1125 X81.6 Y80.012 E134.70326
G0 F7200 X83.2 Y80.013
G1 F1125 X83.2 Y48.482 E137.91236
G0 F7200 X84.8 Y50.01
G1 F1125 X84.8 Y80.013 E140.96594
G0 F7200 X86.4 Y80.014
G1 F1125 X86.4 Y51.789 E143.83857
G0 F7200 X88 Y53.569
G1 F1125 X88 Y80.014 E146.53004
G0 F7200 X89.6 Y80.014
G1 F1125 X89.6 Y55.843 E148.99007
G0 F7200 X91.2 Y58.609
G1 F1125 X91.2 Y79.997 E151.16685
G0 F7200 X92.8 Y79.639
M104 S200
G1 F1125 X92.8 Y61.76 E152.9865
G0 F7200 X94.4 Y66.639
G1 F1125 X94.4 Y78.501 E154.19377
G0 F600 X94.4 Y78.501 Z0.525
G0 F7200 X91.933 Y79.961
;TIME_ELAPSED:111.694823
;LAYER:-4
M140 S60
;TYPE:SUPPORT
G1 F1125 X92.167 Y79.908 E154.20906
G1 X92.492 Y79.811 E154.23068
G1 X92.526 Y79.798 E154.233
G1 X53.295 Y40.567 E157.76907
G1 X54.344 Y40.343 E157.83743
G1 X93.391 Y79.391 E161.35696
G1 X93.515 Y79.316 E161.3662
G1 X93.758 Y79.147 E161.38506
G1 X93.995 Y78.961 E161.40426
G1 X94.12 Y78.846 E161.41509
G1 X55.394 Y40.12 E164.90564
G1 X55.706 Y40.054 E164.92596
G1 X55.857 Y40.027 E164.93574
G1 X56.268 Y39.967 E164.96221
G1 X56.482 Y39.947 E164.97591
G1 X56.493 Y39.947 E164.97661
G1 X94.726 Y78.179 E168.42268
G1 X94.78 Y78.107 E168.42842
G1 X94.95 Y77.851 E168.448
G1 X95.099 Y77.591 E168.4671
G1 X95.202 Y77.383 E168.48189
G1 X57.757 Y39.938 E171.85698
G1 X58.051 Y39.939 E171.87572
G1 X58.433 Y39.962 E171.90011
G1 X58.731 Y40 E171.91926
G1 X59.005 Y40.052 E171.93703
G1 X59.165 Y40.073 E171.94732
G1 X95.525 Y76.434 E175.22465
G1 X95.571 Y76.214 E175.23898
G1 X95.614 Y75.914 E175.25829
G1 X95.637 Y75.612 E175.2776
G1 X95.641 Y75.354 E175.29404
G1 X95.638 Y75.273 E175.29921
G1 X60.484 Y40.119 E178.4678
G1 X60.876 Y40.073 E178.49295
G1 X61.337 Y39.996 E178.52274
G1 X61.609 Y39.972 E178.54015
G1 X95.508 Y73.87 E181.59557
G1 X95.36 Y72.45 E181.68657
G1 X62.847 Y39.937 E184.61711
G1 X63.24 Y39.938 E184.64216
G1 X63.645 Y39.964 E184.66802
G1 X63.913 Y39.996 E184.68522
G1 X64.183 Y40.041 E184.70267
G1 X64.235 Y40.052 E184.70606
G1 X95.212 Y71.029 E187.49816
G1 X95.064 Y69.609 E187.58915
G1 X65.85 Y40.394 E190.22238
G1 X67.464 Y40.735 E190.32752
G1 X94.896 Y68.167 E192.80009
G1 X94.855 Y67.965 E192.81323
G1 X94.758 Y67.593 E192.83773
G1 X94.352 Y66.351 E192.92101
G1 X69.077 Y41.076 E195.19916
G1 X70.579 Y41.394 E195.29701
G1 X70.702 Y41.428 E195.30515
G1 X93.734 Y64.46 E197.38113
G1 X93.116 Y62.569 E197.50792
G1 X72.842 Y42.295 E199.33531
G1 X75.139 Y43.319 E199.4956
G1 X92.377 Y60.557 E201.04933
G1 X92.336 Y60.475 E201.05518
G1 X90.646 Y57.554 E201.27026
G1 X77.435 Y44.342 E202.46107
G1 X77.804 Y44.536 E202.48764
G1 X78.016 Y44.662 E202.50336
G1 X78.282 Y44.841 E202.5238
G1 X81.682 Y47.316 E202.79183
G1 X88.82 Y54.455 E203.43525
G0 F7200 X88.782 Y54.401
G1 F1125 X88.543 Y54.098 E203.45985
G1 X84.229 Y49.3 E203.87108
G1 X84.008 Y49.073 E203.89127
G1 X83.845 Y48.922 E203.90543
G1 X83.517 Y48.652 E203.93251
G1 X81.682 Y47.316 E204.07718
G0 F7200 X64.974 Y68.722
G1 F1125 X65.203 Y68.899 E204.09563
G1 X65.536 Y69.179 E204.12335
G1 X65.727 Y69.355 E204.13991
G1 X66.048 Y69.676 E204.16884
G1 X66.25 Y69.898 E204.18797
G1 X66.541 Y70.245 E204.21683
G1 X66.709 Y70.462 E204.23433
G1 X66.855 Y70.673 E204.25068
G1 X76.242 Y80.06 E205.09677
G1 X77.515 Y80.06 E205.17791
G1 X42.068 Y44.614 E208.37286
G1 X42.155 Y44.558 E208.37945
G1 X42.359 Y44.443 E208.39438
G1 X42.622 Y44.313 E208.41308
G1 X42.912 Y44.184 E208.43331
G1 X78.788 Y80.061 E211.66702
G1 X80.061 Y80.061 E211.74815
G1 X43.793 Y43.793 E215.01715
G1 X44.674 Y43.401 E215.07861
G1 X81.334 Y80.062 E218.38299
G1 X82.607 Y80.062 E218.46412
G1 X45.555 Y43.009 E221.80383
G1 X46.436 Y42.618 E221.86526
G1 X83.881 Y80.062 E225.2403
G1 X85.154 Y80.062 E225.32144
G1 X47.317 Y42.226 E228.73181
G1 X48.198 Y41.834 E228.79327
G1 X86.427 Y80.063 E232.23902
G1 X87.7 Y80.063 E232.32016
G1 X49.112 Y41.476 E235.79822
G1 X49.181 Y41.454 E235.80284
G1 X49.496 Y41.374 E235.82355
G1 X50.145 Y41.236 E235.86584
G1 X88.973 Y80.064 E239.36559
G1 X90.246 Y80.064 E239.44672
G1 X51.195 Y41.013 E242.96656
G1 X52.245 Y40.79 E243.03498
G1 X91.479 Y80.023 E246.57127
G1 X91.588 Y80.014 E246.57824
G1 X91.933 Y79.961 E246.60049
G0 F7200 X70.219 Y79.128
G1 F1125 X70.379 Y79.246 E246.61316
G1 X70.624 Y79.402 E246.63167
G1 X70.872 Y79.54 E246.64976
G1 X71.157 Y79.675 E246.66986
G1 X71.402 Y79.773 E246.68668
G1 X71.687 Y79.866 E246.70578
G1 X71.984 Y79.944 E246.72535
G1 X72.274 Y80 E246.74418
G1 X72.375 Y80.012 E246.75066
G1 X68.403 Y76.04 E247.10867
G1 X68.35 Y75.523 E247.1418
G1 X68.324 Y74.924 E247.18001
G1 X68.301 Y74.665 E247.19658
G1 X73.696 Y80.06 E247.68286
G1 X74.968 Y80.06 E247.76393
G1 X68.008 Y73.099 E248.39131
G1 X67.996 Y73.055 E248.39422
G1 X67.914 Y72.792 E248.41178
G1 X67.764 Y72.374 E248.44008
G1 X67.656 Y72.114 E248.45802
G1 X67.462 Y71.694 E248.48751
G1 X67.334 Y71.448 E248.50518
G1 X67.11 Y71.059 E248.53379
G1 X66.967 Y70.835 E248.55073
G1 X66.855 Y70.673 E248.56328
G0 F7200 X64.734 Y68.553
G1 F1125 X41.316 Y45.134 E250.6741
G1 X40.58 Y45.671 E250.73217
G1 X62.313 Y67.404 E252.69106
G1 X61.943 Y67.306 E252.71546
G1 X61.701 Y67.252 E252.73126
G1 X61.701 Y67.249 E252.73145
G1 X61.065 Y67.122 E252.77279
G1 X60.71 Y67.074 E252.79562
G1 X39.844 Y46.208 E254.67636
G1 X39.107 Y46.744 E254.73445
G1 X59.434 Y67.071 E256.56661
G1 X59.273 Y67.095 E256.57698
G1 X59.266 Y67.066 E256.57889
G1 X58.344 Y67.253 E256.63885
G1 X38.371 Y47.28 E258.4391
G1 X37.635 Y47.817 E258.49717
G1 X57.331 Y67.513 E260.27246
G1 X56.955 Y67.652 E260.29801
G1 X56.687 Y67.762 E260.31647
G1 X56.427 Y67.882 E260.33472
G1 X36.898 Y48.354 E262.09492
G1 X36.534 Y48.619 E262.12361
G1 X36.288 Y48.812 E262.14354
G1 X36.18 Y48.908 E262.15275
G1 X55.601 Y68.329 E263.90325
G1 X55.408 Y68.454 E263.91791
G1 X55.027 Y68.72 E263.94752
G1 X54.853 Y68.853 E263.96148
G1 X35.55 Y49.551 E265.7013
G1 X34.948 Y50.222 E265.75876
G1 X54.176 Y69.449 E267.49182
G1 X53.938 Y69.688 E267.51332
G1 X53.762 Y69.879 E267.52987
G1 X53.566 Y70.113 E267.54933
G1 X34.347 Y50.893 E269.28167
G1 X33.745 Y51.564 E269.33912
G1 X53.028 Y70.847 E271.07718
G1 X52.9 Y71.045 E271.09221
G1 X52.666 Y71.446 E271.1218
G1 X52.56 Y71.652 E271.13657
G1 X33.143 Y52.235 E272.88671
G1 X32.541 Y52.906 E272.94416
G1 X52.178 Y72.542 E274.71409
G1 X52.096 Y72.764 E274.72917
G1 X52.01 Y73.031 E274.74705
G1 X51.894 Y73.458 E274.77525
G1 X51.881 Y73.519 E274.77923
G1 X31.94 Y53.577 E276.57665
G1 X31.459 Y54.114 E276.62259
