;FLAVOR:Marlin
;TIME:13901
;Filament used: 9.82361m
;Layer height: 0.175
;MINX:13.7
;MINY:15.114
;MINZ:0.263
;MAXX:106.3
;MAXY:78.88
;MAXZ:25.988
;Generated with Cura_SteamEngine 4.4.0
M140 S65
M105
M190 S65
M104 S205
M105
M109 S205
M82 ;absolute extrusion mode
G21;(metric values)
G90;(absolute positioning)
M82;(set extruder to absolute mode)
M107;(start with the fan off)
G28;(Home the printer)
G92 E0;(Reset the extruder to 0)
G0 Z5 E5 F500;(Move up and prime the nozzle)
G0 X-1 Z0;(Move outside the printable area)
G1 Y60 E8 F500;(Draw a priming/wiping line to the rear)
G1 X-1;(Move a little closer to the print area)
G1 Y10 E16 F500;(draw more priming/wiping)
G1 E15 F250;(Small retract)
G92 E0;(Zero the extruder)
G92 E0
G92 E0
G1 F2400 E-2.5
;LAYER_COUNT:148
;LAYER:0
M107
G0 F4320 X13.702 Y40.275 Z0.263
;TYPE:SUPPORT
G1 F2400 E0
G1 F1800 X13.777 Y40.35 E0.00406
G1 X15.3 Y40.35 E0.06234
G1 X15.3 Y52.65 E0.53306
G1 X13.773 Y52.65 E0.5915
G1 X13.7 Y52.723 E0.59545
G1 X13.702 Y40.969 E1.04528
G0 F1620 X13.702 Y40.275
G0 F4320 X13.998 Y40.49
G1 F1800 X13.998 Y52.51 E1.50528
G0 F4320 X13.84 Y51.326
G1 F1800 X15.159 Y51.326 E1.55576
G0 F4320 X15.159 Y48.993
G1 F1800 X13.84 Y48.993 E1.60624
G0 F4320 X13.84 Y46.66
G1 F1800 X15.159 Y46.66 E1.65672
G0 F4320 X15.159 Y44.327
G1 F1800 X13.841 Y44.327 E1.70716
G0 F4320 X13.841 Y41.994
G1 F1800 X15.159 Y41.994 E1.7576
G1 F2400 E-0.7424
;MESH:Body.stl
G0 F4320 X21.86 Y41.994
G0 X22.895 Y41.994
G0 X23.375 Y54.375
;TYPE:WALL-INNER
G1 F2400 E1.7576
G1 F1800 X23.375 Y38.625 E2.36035
G1 X15.061 Y38.625 E2.67852
G1 X14.886 Y38.625 E2.68522
G1 X14.886 Y38.45 E2.68956
G1 X14.888 Y20.356 E3.38201
G1 X14.881 Y17.312 E3.49851
G1 X14.881 Y17.137 E3.5052
G1 X15.056 Y17.137 E3.50954
G1 X69.1 Y17.138 E5.5778
G1 X101.86 Y17.138 E6.83152
G1 X104.938 Y17.131 E6.94932
G1 X105.113 Y17.131 E6.95601
G1 X105.113 Y17.306 E6.96035
G1 X105.113 Y72.176 E9.06022
G1 X105.119 Y76.694 E9.23312
G1 X105.119 Y76.869 E9.23982
G1 X104.944 Y76.869 E9.24416
G1 X101.862 Y76.862 E9.3621
G1 X18.14 Y76.862 E12.56614
G1 X15.062 Y76.869 E12.68394
G1 X14.887 Y76.869 E12.69063
G1 X14.887 Y76.694 E12.69497
G1 X14.884 Y54.55 E13.54242
G1 X14.884 Y54.375 E13.54911
G1 X15.059 Y54.375 E13.55345
G1 X23.375 Y54.375 E13.8717
G1 F2400 E11.3717
G0 F4320 X23.52 Y52.349
G0 X21.86 Y52.349
G0 X54.14 Y54.56
G0 X52.46 Y54.56
G0 X52.625 Y60.375
G1 F2400 E13.8717
G1 F1800 X70.375 Y60.375 E14.55099
G1 X70.375 Y42.625 E15.23028
G1 X52.625 Y42.625 E15.90957
G1 X52.625 Y59.681 E16.56231
G0 F1620 X52.625 Y60.375
G0 F4320 X52.975 Y60.025
G1 F1800 X70.025 Y60.025 E17.21481
G1 X70.025 Y42.975 E17.86731
G1 X52.975 Y42.975 E18.51981
G1 X52.975 Y59.331 E19.14576
G0 F1620 X52.975 Y60.025
G1 F2400 E16.64576
G0 F4320 X52.46 Y54.025
G0 X54.14 Y54.025
G0 X21.86 Y52.349
G0 X23.52 Y52.349
G0 X23.025 Y54.025
G1 F2400 E19.14576
G1 F1800 X23.025 Y38.975 E19.72172
G1 X14.711 Y38.975 E20.0399
G1 X14.536 Y38.975 E20.04659
G1 X14.536 Y38.8 E20.05093
G1 X14.538 Y20.356 E20.75678
G1 X14.531 Y17.088 E20.88185
G1 X14.531 Y17.04 E20.88368
G1 X14.54 Y16.802 E20.8928
G1 X14.544 Y16.794 E20.89314
G1 X14.559 Y16.787 E20.89377
G1 X14.607 Y16.787 E20.89561
G1 X69.1 Y16.788 E22.98105
G1 X101.86 Y16.788 E24.23478
G1 X105.161 Y16.781 E24.36111
G1 X105.208 Y16.781 E24.36291
G1 X105.456 Y16.794 E24.37241
G1 X105.463 Y16.809 E24.37304
G1 X105.463 Y16.856 E24.37484
G1 X105.463 Y72.176 E26.49193
G1 X105.462 Y73.691 E26.54991
G1 X105.469 Y76.923 E26.6736
G1 X105.469 Y76.971 E26.67544
G1 X105.451 Y77.21 E26.68461
G1 X105.421 Y77.22 E26.68582
G1 X105.373 Y77.22 E26.68766
G1 X101.861 Y77.212 E26.82206
G1 X18.14 Y77.212 E30.02606
G1 X14.839 Y77.219 E30.15239
G1 X14.792 Y77.219 E30.15419
G1 X14.552 Y77.21 E30.16338
G1 X14.544 Y77.206 E30.16372
G1 X14.537 Y77.191 E30.16436
G1 X14.537 Y77.144 E30.16615
G1 X14.538 Y56.893 E30.94116
G1 X14.533 Y54.2 E31.04422
G1 X14.533 Y54.025 E31.05092
G1 X14.708 Y54.025 E31.05525
G1 X23.025 Y54.025 E31.37354
G0 F4320 X22.7 Y53.7
;TYPE:WALL-OUTER
G1 F1800 X22.7 Y39.3 E31.92463
G1 X14.386 Y39.3 E32.24281
G1 X14.211 Y39.3 E32.2495
G1 X14.211 Y39.125 E32.25384
G1 X14.213 Y20.356 E32.97213
G1 X14.206 Y17.028 E33.09949
G1 X14.218 Y16.716 E33.11144
G1 X14.303 Y16.552 E33.11851
G1 X14.481 Y16.462 E33.12614
G1 X69.1 Y16.463 E35.21641
G1 X101.86 Y16.463 E36.47013
G1 X105.219 Y16.456 E36.59868
G1 X105.534 Y16.468 E36.61074
G1 X105.698 Y16.553 E36.61781
G1 X105.788 Y16.731 E36.62545
G1 X105.788 Y72.176 E38.74732
G1 X105.787 Y73.691 E38.8053
G1 X105.794 Y76.983 E38.93129
G1 X105.767 Y77.338 E38.94491
G1 X105.651 Y77.487 E38.95214
G1 X105.47 Y77.545 E38.95941
G1 X101.86 Y77.537 E39.09757
G1 X18.14 Y77.537 E42.30153
G1 X14.781 Y77.544 E42.43008
G1 X14.466 Y77.532 E42.44214
G1 X14.302 Y77.447 E42.44921
G1 X14.212 Y77.269 E42.45684
G1 X14.213 Y56.893 E43.23663
G1 X14.207 Y53.875 E43.35213
G1 X14.207 Y53.7 E43.35883
G1 X14.382 Y53.7 E43.36316
G1 X22.7 Y53.7 E43.68149
G0 F4320 X22.7 Y53.5
G1 F2400 E41.18149
G0 F4320 X22.975 Y53.5
G0 X23.52 Y52.349
G0 X21.86 Y52.349
G0 X54.14 Y54.56
G0 X52.46 Y54.56
G0 X53.025 Y59.7
G0 X53.3 Y59.7
G1 F2400 E43.68149
G1 F1800 X69.7 Y59.7 E44.30912
G1 X69.7 Y43.3 E44.93674
G1 X53.3 Y43.3 E45.56437
G1 X53.3 Y59.006 E46.16544
G0 F1620 X53.3 Y59.7
G0 F4320 X53.5 Y59.7
G0 X53.5 Y59.975
G0 X52.51 Y60.49
G0 X52.285 Y60.715
;TYPE:SKIN
G1 F1800 X70.715 Y60.715 E46.87075
G1 X70.715 Y42.285 E47.57607
G1 X52.285 Y42.285 E48.28138
G1 X52.285 Y60.021 E48.96014
G0 F1620 X52.285 Y60.715
G1 F2400 E46.46014
G0 F4320 X52.54 Y60.49
G0 X52.46 Y54.49
G0 X54.14 Y54.49
G0 X21.86 Y52.349
G0 X23.52 Y52.349
G0 X23.46 Y54.49
G0 X23.715 Y54.715
G1 F2400 E48.96014
G1 F1800 X23.715 Y38.285 E49.58891
G1 X15.226 Y38.285 E49.91379
G1 X15.228 Y20.356 E50.59993
G1 X15.221 Y17.477 E50.71011
G1 X69.1 Y17.478 E52.77206
G1 X101.86 Y17.478 E54.02578
G1 X104.773 Y17.471 E54.13726
G1 X104.773 Y72.176 E56.23082
G1 X104.779 Y76.529 E56.39741
G1 X101.862 Y76.522 E56.50904
G1 X18.14 Y76.522 E59.71308
G1 X15.227 Y76.529 E59.82456
G1 X15.224 Y54.715 E60.65938
G1 X23.021 Y54.715 E60.95777
G0 F1620 X23.715 Y54.715
G0 F4320 X23.49 Y54.49
G0 X15.041 Y54.532
G0 X15.044 Y76.712
G0 X15.489 Y76.371
G1 F1800 X15.383 Y76.265 E60.9635
G0 F4320 X15.383 Y75.77
G1 F1800 X15.982 Y76.369 E60.99592
G0 F4320 X16.477 Y76.368
G1 F1800 X15.383 Y75.275 E61.05511
G0 F4320 X15.383 Y74.78
G1 F1800 X16.97 Y76.367 E61.141
G0 F4320 X17.464 Y76.366
G1 F1800 X15.383 Y74.285 E61.25362
G0 F4320 X15.383 Y73.79
G1 F1800 X17.957 Y76.364 E61.39293
G0 F4320 X18.452 Y76.364
G1 F1800 X15.383 Y73.295 E61.55903
G0 F4320 X15.383 Y72.8
G1 F1800 X18.947 Y76.364 E61.75192
G0 F4320 X19.442 Y76.364
G1 F1800 X15.383 Y72.305 E61.97161
G0 F4320 X15.383 Y71.81
G1 F1800 X19.937 Y76.364 E62.21808
G0 F4320 X20.432 Y76.364
G1 F1800 X15.383 Y71.315 E62.49134
G0 F4320 X15.382 Y70.819
G1 F1800 X20.927 Y76.364 E62.79144
G0 F4320 X21.422 Y76.364
G1 F1800 X15.382 Y70.324 E63.11834
G0 F4320 X15.382 Y69.829
G1 F1800 X21.917 Y76.364 E63.47203
G0 F4320 X22.412 Y76.364
G1 F1800 X15.382 Y69.334 E63.8525
G0 F4320 X15.382 Y68.839
G1 F1800 X22.907 Y76.364 E64.25977
G0 F4320 X23.402 Y76.364
G1 F1800 X15.382 Y68.344 E64.69383
G0 F4320 X15.382 Y67.849
G1 F1800 X23.897 Y76.364 E65.15468
G0 F4320 X24.392 Y76.364
G1 F1800 X15.382 Y67.354 E65.64231
G0 F4320 X15.382 Y66.859
G1 F1800 X24.887 Y76.364 E66.15674
G0 F4320 X25.382 Y76.364
G1 F1800 X15.382 Y66.364 E66.69796
G0 F4320 X15.382 Y65.869
G1 F1800 X25.877 Y76.364 E67.26597
G0 F4320 X26.372 Y76.364
G1 F1800 X15.381 Y65.374 E67.8608
G0 F4320 X15.381 Y64.879
G1 F1800 X26.867 Y76.364 E68.48241
G0 F4320 X27.362 Y76.364
G1 F1800 X15.381 Y64.384 E69.13082
G0 F4320 X15.381 Y63.889
G1 F1800 X27.857 Y76.364 E69.80602
G0 F4320 X28.352 Y76.364
G1 F1800 X15.381 Y63.394 E70.50801
G0 F4320 X15.381 Y62.899
G1 F1800 X28.847 Y76.364 E71.23678
G0 F4320 X29.342 Y76.364
G1 F1800 X15.381 Y62.404 E71.99235
G0 F4320 X15.381 Y61.909
G1 F1800 X29.837 Y76.364 E72.77471
G0 F4320 X30.332 Y76.364
G1 F1800 X15.381 Y61.414 E73.58386
G0 F4320 X15.381 Y60.919
G1 F1800 X30.827 Y76.364 E74.4198
G0 F4320 X31.322 Y76.364
G1 F1800 X15.381 Y60.424 E75.28253
G0 F4320 X15.38 Y59.928
G1 F1800 X31.816 Y76.364 E76.17208
G0 F4320 X32.311 Y76.364
G1 F1800 X15.38 Y59.433 E77.08841
G0 F4320 X15.38 Y58.938
G1 F1800 X32.806 Y76.364 E78.03154
G0 F4320 X33.301 Y76.364
G1 F1800 X15.38 Y58.443 E79.00146
G0 F4320 X15.38 Y57.948
G1 F1800 X33.796 Y76.364 E79.99817
G0 F4320 X34.291 Y76.364
G1 F1800 X15.38 Y57.453 E81.02167
G0 F4320 X15.38 Y56.958
G1 F1800 X34.786 Y76.364 E82.07195
G0 F4320 X35.281 Y76.364
G1 F1800 X15.38 Y56.463 E83.14903
G0 F4320 X15.38 Y55.968
G1 F1800 X35.776 Y76.364 E84.2529
G0 F4320 X36.271 Y76.364
G1 F1800 X15.38 Y55.473 E85.38356
G0 F4320 X15.38 Y54.978
G1 F1800 X36.766 Y76.364 E86.54101
G0 F4320 X37.261 Y76.364
G1 F1800 X15.768 Y54.871 E87.70426
G0 F4320 X16.263 Y54.871
G1 F1800 X37.756 Y76.364 E88.8675
G0 F4320 X38.251 Y76.364
G1 F1800 X16.758 Y54.871 E90.03074
G0 F4320 X17.253 Y54.871
G1 F1800 X38.746 Y76.364 E91.19398
G0 F4320 X39.241 Y76.364
G1 F1800 X17.748 Y54.871 E92.35722
G0 F4320 X18.243 Y54.871
G1 F1800 X39.736 Y76.364 E93.52046
G0 F4320 X40.231 Y76.364
G1 F1800 X18.738 Y54.871 E94.6837
G0 F4320 X19.233 Y54.871
G1 F1800 X40.726 Y76.364 E95.84695
G0 F4320 X41.221 Y76.364
G1 F1800 X19.728 Y54.871 E97.01019
G0 F4320 X20.223 Y54.871
G1 F1800 X41.716 Y76.364 E98.17343
G0 F4320 X42.211 Y76.364
G1 F1800 X20.718 Y54.871 E99.33667
G0 F4320 X21.213 Y54.871
G1 F1800 X42.706 Y76.364 E100.49991
G0 F4320 X43.201 Y76.364
G1 F1800 X21.708 Y54.871 E101.66315
G0 F4320 X22.203 Y54.871
G1 F1800 X43.696 Y76.364 E102.82639
G0 F4320 X44.191 Y76.364
G1 F1800 X22.698 Y54.871 E103.98964
G0 F4320 X23.193 Y54.871
G1 F1800 X44.686 Y76.364 E105.15288
G0 F4320 X45.181 Y76.364
G1 F1800 X23.688 Y54.871 E106.31612
G0 F4320 X23.871 Y54.56
G1 F1800 X45.676 Y76.364 E107.49622
G0 F4320 X46.171 Y76.364
G1 F1800 X23.871 Y54.065 E108.70311
G0 F4320 X23.871 Y53.57
G1 F1800 X46.666 Y76.364 E109.93679
G0 F4320 X47.161 Y76.364
G1 F1800 X23.871 Y53.075 E111.19726
G0 F4320 X23.871 Y52.58
G1 F1800 X47.656 Y76.364 E112.48452
G0 F4320 X48.151 Y76.364
G1 F1800 X23.871 Y52.085 E113.79858
G0 F4320 X23.871 Y51.59
G1 F1800 X48.646 Y76.364 E115.13942
G0 F4320 X49.141 Y76.364
G1 F1800 X23.871 Y51.095 E116.50705
G0 F4320 X23.871 Y50.6
G1 F1800 X49.636 Y76.364 E117.90147
G0 F4320 X50.131 Y76.364
G1 F1800 X23.871 Y50.105 E119.32269
G0 F4320 X23.871 Y49.61
G1 F1800 X50.626 Y76.364 E120.77069
G0 F4320 X51.12 Y76.364
G1 F1800 X23.871 Y49.115 E122.24546
G0 F4320 X23.871 Y48.62
G1 F1800 X51.615 Y76.364 E123.74701
G0 F4320 X52.11 Y76.364
G1 F1800 X23.871 Y48.125 E125.27536
G0 F4320 X23.871 Y47.63
G1 F1800 X52.605 Y76.364 E126.8305
G0 F4320 X53.1 Y76.364
G1 F1800 X23.871 Y47.135 E128.41243
G0 F4320 X23.871 Y46.64
G1 F1800 X53.595 Y76.364 E130.02115
G0 F4320 X54.09 Y76.364
G1 F1800 X23.871 Y46.145 E131.65666
G0 F4320 X23.871 Y45.65
G1 F1800 X54.585 Y76.364 E133.31895
G0 F4320 X55.08 Y76.364
G1 F1800 X23.871 Y45.155 E135.00804
G0 F4320 X23.871 Y44.66
G1 F1800 X55.575 Y76.364 E136.72392
G0 F4320 X56.07 Y76.364
G1 F1800 X23.871 Y44.165 E138.46659
G0 F4320 X23.871 Y43.67
G1 F1800 X56.565 Y76.364 E140.23605
G0 F4320 X57.06 Y76.364
G1 F1800 X23.871 Y43.175 E142.03231
G0 F4320 X23.871 Y42.68
G1 F1800 X57.555 Y76.364 E143.85535
G0 F4320 X58.05 Y76.364
G1 F1800 X23.871 Y42.185 E145.70518
G0 F4320 X23.871 Y41.691
G1 F1800 X58.545 Y76.364 E147.58177
G0 F4320 X59.04 Y76.364
G1 F1800 X23.871 Y41.196 E149.48516
G0 F4320 X23.871 Y40.701
G1 F1800 X59.535 Y76.364 E151.41533
G0 F4320 X60.03 Y76.364
G1 F1800 X23.871 Y40.206 E153.3723
G0 F4320 X23.871 Y39.711
G1 F1800 X60.525 Y76.364 E155.35605
G0 F4320 X61.02 Y76.364
G1 F1800 X23.871 Y39.216 E157.3666
G0 F4320 X23.871 Y38.721
G1 F1800 X61.515 Y76.364 E159.40394
G0 F4320 X62.01 Y76.364
G1 F1800 X23.871 Y38.226 E161.46806
G0 F4320 X23.772 Y38.127
G1 F1800 X15.383 Y29.737 E161.92212
G0 F4320 X15.383 Y29.242
G1 F1800 X62.505 Y76.364 E164.47245
G0 F4320 X63 Y76.364
G1 F1800 X15.383 Y28.747 E167.04957
G0 F4320 X15.383 Y28.252
G1 F1800 X63.495 Y76.364 E169.65348
G0 F4320 X63.99 Y76.364
G1 F1800 X15.383 Y27.757 E172.28419
G0 F4320 X15.383 Y27.262
G1 F1800 X64.485 Y76.364 E174.94168
G0 F4320 X64.98 Y76.364
G1 F1800 X15.383 Y26.767 E177.62596
G0 F4320 X15.383 Y26.273
G1 F1800 X65.475 Y76.364 E180.33701
G0 F4320 X65.97 Y76.364
G1 F1800 X15.383 Y25.778 E183.07484
G0 F4320 X15.383 Y25.283
G1 F1800 X66.465 Y76.364 E185.83947
G0 F4320 X66.96 Y76.364
G1 F1800 X15.383 Y24.788 E188.63089
G0 F4320 X15.383 Y24.293
G1 F1800 X67.455 Y76.364 E191.44909
G0 F4320 X67.95 Y76.364
G1 F1800 X52.457 Y60.871 E192.2876
G0 F4320 X52.128 Y60.543
G1 F1800 X15.383 Y23.798 E194.27631
G0 F4320 X15.383 Y23.303
G1 F1800 X52.128 Y60.048 E196.26502
G0 F4320 X52.128 Y59.553
G1 F1800 X15.383 Y22.808 E198.25373
G0 F4320 X15.383 Y22.313
G1 F1800 X52.128 Y59.058 E200.24244
G0 F4320 X52.128 Y58.563
G1 F1800 X15.383 Y21.818 E202.23114
G0 F4320 X15.383 Y21.323
G1 F1800 X52.128 Y58.068 E204.21985
G0 F4320 X52.128 Y57.573
G1 F1800 X15.383 Y20.828 E206.20856
G0 F4320 X15.383 Y20.333
G1 F1800 X52.128 Y57.078 E208.19727
G0 F4320 X52.128 Y56.583
G1 F1800 X15.383 Y19.837 E210.186
G0 F4320 X15.381 Y19.341
G1 F1800 X52.128 Y56.088 E212.17482
G0 F4320 X52.128 Y55.593
G1 F1800 X15.38 Y18.845 E214.16369
G0 F4320 X15.379 Y18.349
G1 F1800 X52.128 Y55.098 E216.15262
G0 F4320 X52.128 Y54.603
G1 F1800 X15.378 Y17.853 E218.14159
G0 F4320 X15.654 Y17.634
G1 F1800 X52.128 Y54.108 E220.11564
G0 F4320 X52.128 Y53.613
G1 F1800 X16.149 Y17.634 E222.06289
G0 F4320 X16.644 Y17.634
G1 F1800 X52.128 Y53.118 E223.98335
G0 F4320 X52.128 Y52.623
G1 F1800 X17.139 Y17.634 E225.87702
G0 F4320 X17.634 Y17.634
G1 F1800 X52.128 Y52.128 E227.7439
G0 F4320 X52.128 Y51.633
G1 F1800 X18.129 Y17.634 E229.58399
G0 F4320 X18.624 Y17.634
G1 F1800 X52.128 Y51.138 E231.39729
G0 F4320 X52.128 Y50.643
G1 F1800 X19.119 Y17.634 E233.18379
G0 F4320 X19.614 Y17.634
G1 F1800 X52.128 Y50.148 E234.94351
G0 F4320 X52.128 Y49.653
G1 F1800 X20.109 Y17.634 E236.67644
G0 F4320 X20.604 Y17.634
G1 F1800 X52.128 Y49.158 E238.38258
G0 F4320 X52.128 Y48.663
G1 F1800 X21.099 Y17.634 E240.06193
G0 F4320 X21.594 Y17.634
G1 F1800 X52.128 Y48.168 E241.71448
G0 F4320 X52.128 Y47.673
G1 F1800 X22.089 Y17.634 E243.34025
G0 F4320 X22.584 Y17.634
G1 F1800 X52.128 Y47.178 E244.93923
G0 F4320 X52.128 Y46.683
G1 F1800 X23.079 Y17.634 E246.51141
G0 F4320 X23.574 Y17.634
G1 F1800 X52.128 Y46.188 E248.05681
G0 F4320 X52.128 Y45.693
G1 F1800 X24.069 Y17.634 E249.57542
G0 F4320 X24.564 Y17.634
G1 F1800 X52.128 Y45.198 E251.06723
G0 F4320 X52.128 Y44.703
G1 F1800 X25.059 Y17.634 E252.53226
G0 F4320 X25.554 Y17.634
G1 F1800 X52.128 Y44.209 E253.97052
G0 F4320 X52.128 Y43.714
G1 F1800 X26.049 Y17.634 E255.38199
G0 F4320 X26.544 Y17.634
G1 F1800 X52.128 Y43.219 E256.76667
G0 F4320 X52.128 Y42.724
G1 F1800 X27.039 Y17.634 E258.12456
G0 F4320 X27.534 Y17.634
G1 F1800 X52.128 Y42.229 E259.45566
G0 F4320 X52.522 Y42.128
G1 F1800 X28.029 Y17.634 E260.78129
G0 F4320 X28.523 Y17.634
G1 F1800 X53.017 Y42.128 E262.10696
G0 F4320 X53.512 Y42.128
G1 F1800 X29.018 Y17.634 E263.43262
G0 F4320 X29.513 Y17.634
G1 F1800 X54.007 Y42.128 E264.75828
G0 F4320 X54.502 Y42.128
G1 F1800 X30.008 Y17.634 E266.08394
G0 F4320 X30.503 Y17.634
G1 F1800 X54.997 Y42.128 E267.4096
G0 F4320 X55.492 Y42.128
G1 F1800 X30.998 Y17.634 E268.73526
G0 F4320 X31.493 Y17.634
G1 F1800 X55.987 Y42.128 E270.06092
G0 F4320 X56.482 Y42.128
G1 F1800 X31.988 Y17.634 E271.38658
G0 F4320 X32.483 Y17.634
G1 F1800 X56.977 Y42.128 E272.71224
G0 F4320 X57.472 Y42.128
G1 F1800 X32.978 Y17.634 E274.03791
G0 F4320 X33.473 Y17.634
G1 F1800 X57.967 Y42.128 E275.36357
G0 F4320 X58.462 Y42.128
G1 F1800 X33.968 Y17.634 E276.68923
G0 F4320 X34.463 Y17.634
G1 F1800 X58.957 Y42.128 E278.01489
G0 F4320 X59.452 Y42.128
G1 F1800 X34.958 Y17.634 E279.34055
G0 F4320 X35.453 Y17.634
G1 F1800 X59.947 Y42.128 E280.66621
G0 F4320 X60.442 Y42.128
G1 F1800 X35.948 Y17.634 E281.99187
G0 F4320 X36.443 Y17.634
G1 F1800 X60.937 Y42.128 E283.31753
