;FLAVOR:Marlin
;TIME:7662
;Filament used: 4.19755m
;Layer height: 0.175
;MINX:12.87
;MINY:38.87
;MINZ:0.263
;MAXX:107.129
;MAXY:102.631
;MAXZ:21.438
;Generated with Cura_SteamEngine 4.4.0
M140 S65
M105
M190 S65
M104 S205
M105
M109 S205
M82 ;absolute extrusion mode
G21;(metric values)
G90;(absolute positioning)
M82;(set extruder to absolute mode)
M107;(start with the fan off)
G28;(Home the printer)
G92 E0;(Reset the extruder to 0)
G0 Z5 E5 F500;(Move up and prime the nozzle)
G0 X-1 Z0;(Move outside the printable area)
G1 Y60 E8 F500;(Draw a priming/wiping line to the rear)
G1 X-1;(Move a little closer to the print area)
G1 Y10 E16 F500;(draw more priming/wiping)
G1 E15 F250;(Small retract)
G92 E0;(Zero the extruder)
G92 E0
G92 E0
G1 F2400 E-2.5
;LAYER_COUNT:122
;LAYER:0
M107
;MESH:Hackers_Top.stl
G0 F4320 X47.989 Y43.602 Z0.263
;TYPE:WALL-INNER
G1 F2400 E0
G1 F1800 X47.785 Y43.637 E0.00792
G1 X43.795 Y44.323 E0.16286
G1 X40.865 Y45.204 E0.27995
G1 X37.865 Y46.493 E0.40491
G1 X35.04 Y48.139 E0.53003
G1 X32.437 Y50.116 E0.65512
G1 X30.093 Y52.396 E0.78027
G1 X28.044 Y54.943 E0.90537
G1 X26.318 Y57.719 E1.03046
G1 X24.942 Y60.685 E1.15559
G1 X23.938 Y63.797 E1.28073
G1 X23.318 Y67.008 E1.40589
G1 X23.094 Y70.267 E1.5309
G1 X23.244 Y73.362 E1.64949
G1 X23.75 Y76.405 E1.76754
G1 X24.603 Y79.371 E1.88565
G1 X25.789 Y82.22 E2.00375
G1 X27.293 Y84.913 E2.1218
G1 X29.097 Y87.416 E2.23987
G1 X31.177 Y89.696 E2.35798
G1 X33.504 Y91.722 E2.47606
G1 X36.046 Y93.469 E2.5941
G1 X38.774 Y94.912 E2.71221
G1 X41.649 Y96.033 E2.8303
G1 X44.634 Y96.816 E2.9484
G1 X48.633 Y97.389 E3.10301
G1 X48.832 Y97.417 E3.1107
G1 X48.832 Y97.217 E3.11546
G1 X48.832 Y97.216 E3.1155
G1 X48.832 Y90.71 E3.36449
G1 X47.343 Y90.603 E3.42162
G1 X45.303 Y90.267 E3.50074
G1 X43.365 Y89.776 E3.57725
G1 X40.785 Y88.8 E3.68282
G1 X38.605 Y87.63 E3.7775
G1 X36.332 Y86.013 E3.88425
G1 X35.237 Y85.038 E3.94036
G1 X34.061 Y83.824 E4.00505
G1 X32.867 Y82.385 E4.07661
G1 X32.226 Y81.353 E4.1231
G1 X30.083 Y77.299 E4.29859
G1 X29.903 Y76.957 E4.31338
G1 X29.785 Y76.516 E4.33085
G1 X29.667 Y76.025 E4.35018
G1 X29.927 Y76.422 E4.35434
G1 X30.165 Y76.784 E4.36624
G1 X30.377 Y77.107 E4.38024
G1 X32.063 Y79.671 E4.49768
G1 X33.089 Y79.596 E4.53705
G1 X36.723 Y71.807 E4.86598
G1 X37.241 Y70.776 E4.91014
G1 X37.279 Y70.715 E4.91289
G1 X37.786 Y70.853 E4.933
G1 X39.131 Y71.201 E4.98616
G1 X40.663 Y71.4 E5.04529
G1 X42.709 Y71.345 E5.12362
G1 X44.755 Y70.91 E5.20367
G1 X46.549 Y70.167 E5.27798
G1 X48.072 Y69.164 E5.34777
G1 X49.486 Y67.754 E5.42419
G1 X50.52 Y66.155 E5.49706
G1 X51.208 Y64.386 E5.5697
G1 X51.375 Y63.45 E5.60609
G1 X51.405 Y62.418 E5.6456
G1 X51.389 Y61.347 E5.68659
G1 X51.205 Y60.307 E5.72701
G1 X50.564 Y58.603 E5.79668
G1 X50.492 Y58.49 E5.80181
G1 X50.256 Y58.117 E5.8187
G1 X49.839 Y57.459 E5.84851
G1 X49.62 Y57.113 E5.86418
G1 X49.611 Y57.103 E5.8647
G1 X48.408 Y55.843 E5.93137
G1 X46.932 Y54.778 E6.00102
G1 X45.138 Y53.87 E6.07797
G1 X45.195 Y53.708 E6.08455
G1 X45.556 Y52.912 E6.11799
G1 X46.573 Y50.729 E6.21016
G1 X45.773 Y50.299 E6.24492
G1 X45.389 Y50.093 E6.26159
G1 X45.809 Y49.977 E6.27052
G1 X46.996 Y49.648 E6.31766
G1 X47.989 Y49.464 E6.3563
G1 X47.989 Y43.809 E6.57272
G1 X47.989 Y43.808 E6.57276
G1 X47.989 Y43.602 E6.57763
G0 F4320 X47.519 Y49.074
G0 X44.805 Y50.255
G1 F1800 X44.952 Y50.214 E6.58347
G1 X44.843 Y50.391 E6.58627
G1 X42.21 Y51.039 E6.69004
G1 X41.664 Y51.174 E6.71156
G1 X42.194 Y50.978 E6.7136
G1 X44.805 Y50.255 E6.74379
G0 F4320 X40.687 Y51.903
G0 X36.708 Y56.391
G0 X34.178 Y59.697
G1 F1800 X33.68 Y61.762 E6.82508
G1 X33.472 Y64.043 E6.91274
G1 X33.375 Y65.451 E6.96675
G1 X33.132 Y66.736 E7.0168
G1 X32.312 Y68.759 E7.10033
G1 X29.617 Y74.505 E7.34322
G1 X29.519 Y74.715 E7.35209
G1 X29.41 Y74.947 E7.3619
G1 X29.333 Y74.628 E7.367
G1 X29.295 Y74.399 E7.37412
G1 X29.026 Y72.771 E7.43727
G1 X28.842 Y69.761 E7.55268
G1 X28.925 Y67.792 E7.6281
G1 X29.173 Y66.002 E7.69726
G1 X29.779 Y63.683 E7.78899
G1 X30.82 Y61.175 E7.89291
G1 X31.618 Y59.679 E7.95779
G1 X32.462 Y58.352 E8.01798
G1 X34.125 Y56.267 E8.12005
G1 X36.064 Y54.411 E8.22277
G1 X38.083 Y52.95 E8.31814
G1 X39.762 Y52.04 E8.39123
G1 X40.228 Y51.788 E8.4115
G1 X40.004 Y52.268 E8.42214
G1 X39.668 Y52.988 E8.45255
G1 X39.327 Y53.652 E8.48112
G1 X39.178 Y53.845 E8.49045
G1 X38.777 Y54.117 E8.50899
G1 X37.527 Y54.993 E8.56741
G1 X36.369 Y56.078 E8.62814
G1 X35.382 Y57.314 E8.68867
G1 X34.705 Y58.463 E8.73971
G1 X34.434 Y59.097 E8.76609
G0 F1620 X34.178 Y59.697
G1 F2400 E6.26609
G0 F4320 X32.729 Y68.956
G0 X29.679 Y75.487
G0 X32.303 Y79.186
G0 X34.649 Y76.644
G0 X35.105 Y76.858
G1 F2400 E8.76609
G1 F1800 X34.998 Y77.857 E8.80454
G1 X35.047 Y78.511 E8.82964
G1 X35.191 Y79.16 E8.85508
G1 X35.614 Y80.096 E8.89439
G1 X36.301 Y80.994 E8.93766
G1 X37.31 Y81.865 E8.98868
G1 X38.552 Y82.557 E9.04309
G1 X40.141 Y83.018 E9.1064
G1 X41.967 Y83.118 E9.17639
G1 X43.758 Y82.823 E9.24586
G1 X44.793 Y82.468 E9.28773
G1 X45.654 Y82.011 E9.32503
G1 X46.428 Y81.443 E9.36178
G1 X47.115 Y80.75 E9.39912
G1 X47.678 Y79.925 E9.43734
G1 X48.061 Y78.981 E9.47633
G1 X48.179 Y78.226 E9.50558
G1 X48.18 Y77.483 E9.53401
G1 X48.069 Y76.747 E9.56249
G1 X47.834 Y76.073 E9.58981
G1 X47.472 Y75.407 E9.61882
G1 X46.768 Y74.567 E9.66077
G1 X46.144 Y73.986 E9.69339
G1 X45.49 Y73.526 E9.72399
G1 X44.375 Y73.012 E9.77098
G1 X42.826 Y72.611 E9.83221
G1 X41.219 Y72.53 E9.89379
G1 X39.502 Y72.793 E9.96027
G1 X37.899 Y73.431 E10.0263
G1 X37.168 Y73.883 E10.05919
G1 X36.489 Y74.485 E10.09391
G1 X35.932 Y75.11 E10.12595
G1 X35.444 Y75.893 E10.16126
G1 X35.335 Y76.203 E10.17384
G0 F1620 X35.105 Y76.858
G1 F2400 E7.67384
G0 F4320 X35.631 Y79.014
G0 X36.012 Y79.857
G0 X36.638 Y80.677
G0 X37.576 Y81.485
G0 X38.731 Y82.129
G0 X40.219 Y82.562
G0 X41.769 Y82.645
G0 X45.743 Y82.152
G0 X44.845 Y80.726
G0 X51.441 Y83.832
G0 X49.829 Y84.383
G0 X50.273 Y85.275
G1 F2400 E10.17384
G1 F1800 X51.033 Y85.4 E10.20331
G1 X52.643 Y85.193 E10.26544
G1 X54.992 Y84.676 E10.35748
G1 X56.701 Y84.08 E10.42675
G1 X58.303 Y83.306 E10.49484
G1 X60.3 Y81.965 E10.5869
G1 X62.066 Y80.296 E10.67989
G1 X63.422 Y78.497 E10.7661
G1 X64.462 Y76.527 E10.85135
G1 X65.038 Y75.01 E10.91345
G1 X65.399 Y73.574 E10.97012
G1 X65.721 Y71.261 E11.05949
G1 X65.697 Y68.432 E11.16776
G1 X65.493 Y66.832 E11.22949
G1 X65.15 Y65.348 E11.28778
G1 X64.328 Y63.184 E11.37637
G1 X63.175 Y61.216 E11.46366
G1 X61.724 Y59.487 E11.55004
G1 X60.667 Y58.507 E11.6052
G1 X59.56 Y57.67 E11.65831
G1 X57.549 Y56.516 E11.74705
G1 X55.23 Y55.591 E11.84259
G1 X52.591 Y54.938 E11.94663
G1 X51.769 Y54.792 E11.97858
G1 X50.948 Y54.735 E12.01008
G1 X50.31 Y54.984 E12.03629
G1 X49.926 Y55.646 E12.06558
G1 X49.84 Y56.3 E12.09082
G1 X49.894 Y56.826 E12.11106
G1 X49.946 Y57.003 E12.11812
G1 X49.949 Y57.016 E12.11863
G1 X50.041 Y57.33 E12.1288
G1 X50.427 Y58.008 E12.14771
G1 X50.772 Y58.284 E12.16108
G1 X50.886 Y58.375 E12.16667
G1 X52.121 Y58.852 E12.21733
G1 X53.898 Y59.551 E12.29041
G1 X55.503 Y60.445 E12.36072
G1 X56.911 Y61.587 E12.4301
G1 X58.012 Y62.847 E12.49414
G1 X58.863 Y64.233 E12.55638
G1 X59.522 Y65.915 E12.62551
G1 X59.924 Y67.874 E12.70205
G1 X60.033 Y70.417 E12.79945
G1 X59.894 Y72.448 E12.87736
G1 X59.523 Y74.244 E12.94755
G1 X58.864 Y75.933 E13.01693
G1 X58.135 Y77.174 E13.07201
G1 X57.24 Y78.273 E13.12625
G1 X55.929 Y79.411 E13.19269
G1 X54.248 Y80.412 E13.26756
G1 X52.167 Y81.251 E13.35343
G1 X51.376 Y81.516 E13.38536
G1 X50.724 Y81.761 E13.41201
G1 X50.191 Y82.135 E13.43693
G1 X49.865 Y82.742 E13.4633
G1 X49.858 Y83.306 E13.48489
G1 X49.992 Y84.348 E13.52509
G1 X50.072 Y84.611 E13.53561
G0 F1620 X50.273 Y85.275
G1 F2400 E11.03561
G0 F4320 X51.03 Y85.568
G0 X51.441 Y83.832
G0 X52.587 Y91.959
G0 X51.872 Y90.394
G0 X51.082 Y97.412
G1 F2400 E13.53561
G1 F1800 X51.28 Y97.385 E13.54326
G1 X55.031 Y96.866 E13.68818
G1 X58.169 Y96.064 E13.81213
G1 X61.192 Y94.888 E13.93626
G1 X64.051 Y93.357 E14.06038
G1 X66.705 Y91.491 E14.18454
G1 X69.113 Y89.318 E14.30867
G1 X71.243 Y86.873 E14.43277
G1 X73.063 Y84.188 E14.5569
G1 X74.545 Y81.304 E14.68099
G1 X75.671 Y78.261 E14.80516
G1 X76.42 Y75.105 E14.9293
G1 X76.784 Y71.882 E15.05343
G1 X76.759 Y68.64 E15.1775
G1 X76.342 Y65.424 E15.30161
G1 X75.539 Y62.281 E15.42575
G1 X74.365 Y59.257 E15.5499
G1 X72.834 Y56.398 E15.67401
G1 X70.969 Y53.744 E15.79815
G1 X68.799 Y51.334 E15.92226
G1 X66.353 Y49.203 E16.04641
G1 X63.669 Y47.382 E16.17054
G1 X60.785 Y45.899 E16.29464
G1 X57.743 Y44.772 E16.41879
G1 X54.588 Y44.022 E16.5429
G1 X50.432 Y43.552 E16.70296
G1 X50.239 Y43.531 E16.71039
G1 X50.239 Y43.725 E16.71506
G1 X50.239 Y43.726 E16.7151
G1 X50.239 Y49.536 E16.93745
G1 X52.864 Y49.794 E17.03839
G1 X54.911 Y50.215 E17.11837
G1 X56.857 Y50.837 E17.19656
G1 X58.731 Y51.66 E17.27488
G1 X60.904 Y52.925 E17.37111
G1 X62.901 Y54.447 E17.4672
G1 X64.543 Y56.033 E17.55457
G1 X66.287 Y58.191 E17.66075
G1 X67.716 Y60.555 E17.76647
G1 X68.633 Y62.601 E17.85227
G1 X69.411 Y65.039 E17.95021
G1 X69.848 Y67.402 E18.04217
G1 X69.957 Y69.279 E18.11413
G1 X69.974 Y71.345 E18.1932
G1 X69.715 Y73.507 E18.27653
G1 X69.282 Y75.495 E18.35439
G1 X68.37 Y78.165 E18.46237
G1 X67.127 Y80.653 E18.56881
G1 X65.698 Y82.761 E18.66627
G1 X64.017 Y84.676 E18.76379
G1 X63.021 Y85.61 E18.81604
G1 X61.846 Y86.57 E18.87411
G1 X59.614 Y88.027 E18.97611
G1 X57.177 Y89.206 E19.07972
G1 X54.586 Y90.046 E19.18396
G1 X52.042 Y90.531 E19.28307
G1 X51.082 Y90.699 E19.32037
G1 X51.082 Y97.212 E19.56962
G1 X51.082 Y97.213 E19.56966
G1 X51.082 Y97.412 E19.5744
G1 F2400 E17.0744
G0 F4320 X58.028 Y95.625
G0 X60.998 Y94.468
G0 X63.808 Y92.964
G0 X66.416 Y91.13
G0 X68.784 Y88.995
G0 X70.877 Y86.591
G0 X72.666 Y83.952
G0 X74.122 Y81.119
G0 X75.229 Y78.127
G0 X75.892 Y75.336
G0 X76.925 Y68.628
G0 X75.245 Y68.747
G0 X106.627 Y68.628
G0 X104.927 Y68.628
G0 X105.112 Y44.057
G1 F2400 E19.5744
G1 F1800 X105.112 Y97.441 E21.61741
G1 X105.119 Y100.444 E21.73233
G1 X105.119 Y100.619 E21.73903
G1 X104.944 Y100.619 E21.74336
G1 X101.862 Y100.612 E21.86131
G1 X18.14 Y100.613 E25.06535
G1 X15.055 Y100.619 E25.18341
G1 X14.88 Y100.619 E25.19011
G1 X14.88 Y100.444 E25.19444
G1 X14.888 Y97.443 E25.30929
G1 X14.888 Y44.059 E27.35229
G1 X14.881 Y41.056 E27.46722
G1 X14.881 Y40.881 E27.47391
G1 X15.056 Y40.881 E27.47825
G1 X18.138 Y40.888 E27.5962
G1 X101.86 Y40.887 E30.80023
G1 X104.945 Y40.881 E30.9183
G1 X105.12 Y40.881 E30.92499
G1 X105.12 Y41.056 E30.92933
G1 X105.112 Y44.057 E31.04418
G0 F4320 X105.462 Y44.058
G1 F1800 X105.462 Y97.441 E33.08714
G1 X105.469 Y100.673 E33.21083
G1 X105.469 Y100.721 E33.21267
G1 X105.451 Y100.96 E33.22184
G1 X105.421 Y100.97 E33.22305
G1 X105.373 Y100.97 E33.22488
G1 X101.861 Y100.962 E33.35929
G1 X18.14 Y100.963 E36.56329
G1 X14.782 Y100.969 E36.6918
G1 X14.549 Y100.964 E36.70072
G1 X14.53 Y100.721 E36.71004
G1 X14.538 Y97.442 E36.83553
G1 X14.538 Y44.059 E38.8785
G1 X14.531 Y40.827 E39.00219
G1 X14.531 Y40.779 E39.00402
G1 X14.549 Y40.54 E39.01319
G1 X14.579 Y40.53 E39.01441
G1 X14.627 Y40.53 E39.01624
G1 X18.139 Y40.538 E39.15065
G1 X101.86 Y40.537 E42.35464
G1 X105.218 Y40.531 E42.48315
G1 X105.451 Y40.536 E42.49207
G1 X105.47 Y40.779 E42.5014
G1 X105.463 Y43.364 E42.60033
G0 F1620 X105.462 Y44.058
G1 F2400 E40.10033
G0 F4320 X106.627 Y44.061
G0 X52.295 Y45.241
G0 X46.474 Y45.369
G0 X48.134 Y45.369
G0 X47.639 Y44.017
G1 F2400 E42.60033
G1 F1800 X47.435 Y44.052 E42.60825
G1 X43.875 Y44.664 E42.74649
G1 X40.985 Y45.533 E42.86198
G1 X38.023 Y46.806 E42.98536
G1 X35.235 Y48.431 E43.10886
G1 X32.666 Y50.382 E43.23231
G1 X30.352 Y52.632 E43.35583
G1 X28.33 Y55.146 E43.4793
G1 X26.627 Y57.886 E43.60276
G1 X25.269 Y60.813 E43.72625
G1 X24.278 Y63.884 E43.84974
G1 X23.666 Y67.053 E43.97326
G1 X23.445 Y70.271 E44.09671
G1 X23.593 Y73.325 E44.21372
G1 X24.092 Y76.328 E44.33022
G1 X24.934 Y79.255 E44.44678
G1 X26.104 Y82.067 E44.56334
G1 X27.589 Y84.725 E44.67986
G1 X29.369 Y87.195 E44.79637
G1 X31.422 Y89.445 E44.91294
G1 X33.719 Y91.445 E45.0295
G1 X36.228 Y93.169 E45.146
G1 X38.92 Y94.593 E45.26255
G1 X41.757 Y95.7 E45.37909
G1 X44.703 Y96.472 E45.49564
G1 X48.284 Y96.985 E45.63408
G1 X48.482 Y97.013 E45.64174
G1 X48.482 Y96.814 E45.64647
G1 X48.482 Y96.812 E45.64655
G1 X48.482 Y91.036 E45.8676
G1 X47.304 Y90.951 E45.9128
G1 X45.231 Y90.609 E45.9932
G1 X43.26 Y90.11 E46.07101
G1 X40.642 Y89.12 E46.17813
G1 X38.417 Y87.926 E46.27476
G1 X36.114 Y86.287 E46.38294
G1 X34.993 Y85.289 E46.44038
G1 X33.806 Y84.064 E46.50566
G1 X32.581 Y82.587 E46.57909
G1 X31.923 Y81.528 E46.62681
G1 X29.575 Y77.085 E46.81912
G1 X29.447 Y76.607 E46.83806
G1 X29.218 Y75.649 E46.87576
G1 X29.21 Y75.614 E46.87713
G1 X29.2 Y75.569 E46.8789
G1 X28.99 Y74.695 E46.9133
G1 X28.678 Y72.811 E46.98638
G1 X28.492 Y69.758 E47.10343
G1 X28.576 Y67.761 E47.17993
G1 X28.829 Y65.934 E47.25051
G1 X29.445 Y63.575 E47.34382
G1 X30.506 Y61.02 E47.44969
G1 X31.312 Y59.508 E47.51527
G1 X32.179 Y58.146 E47.57705
G1 X33.866 Y56.031 E47.68059
G1 X35.84 Y54.141 E47.78518
G1 X37.897 Y52.652 E47.88236
G1 X40.138 Y51.438 E47.9799
G1 X41.313 Y50.931 E48.02887
G1 X42.086 Y50.645 E48.06041
G1 X46.921 Y49.306 E48.25241
G1 X47.639 Y49.173 E48.28036
G1 X47.639 Y44.224 E48.46976
G1 X47.639 Y44.223 E48.4698
G1 X47.639 Y44.017 E48.47467
G1 F2400 E45.97467
G0 F4320 X47.519 Y49.074
G0 X45.487 Y49.581
G0 X45.957 Y50.934
G0 X45.147 Y54.394
G0 X46.692 Y55.173
G0 X48.104 Y56.192
G0 X49.256 Y57.399
G0 X50.149 Y58.811
G0 X50.759 Y60.43
G0 X50.928 Y61.391
G0 X50.916 Y63.403
G0 X50.762 Y64.261
G0 X50.108 Y65.944
G0 X49.126 Y67.463
G0 X47.78 Y68.805
G0 X46.331 Y69.758
G0 X44.617 Y70.468
G0 X42.655 Y70.886
G0 X40.687 Y70.937
G0 X39.22 Y70.748
G0 X37.657 Y70.34
G0 X36.873 Y71.877
G0 X37.754 Y73.304
G0 X36.301 Y75.389
G0 X35.449 Y76.936
G1 F2400 E48.47467
G1 F1800 X35.349 Y77.863 E48.51035
G1 X35.394 Y78.46 E48.53326
G1 X35.525 Y79.049 E48.55635
G1 X35.916 Y79.915 E48.59271
G1 X36.557 Y80.753 E48.63309
G1 X37.512 Y81.577 E48.68136
G1 X38.688 Y82.232 E48.73288
G1 X40.2 Y82.671 E48.79313
G1 X41.948 Y82.766 E48.86013
G1 X43.672 Y82.482 E48.92699
G1 X44.653 Y82.146 E48.96668
G1 X45.467 Y81.714 E49.00194
G1 X46.199 Y81.177 E49.03669
G1 X46.844 Y80.526 E49.07176
G1 X47.368 Y79.759 E49.10731
G1 X47.721 Y78.887 E49.14331
G1 X47.829 Y78.198 E49.17
G1 X47.83 Y77.509 E49.19637
G1 X47.728 Y76.831 E49.22261
G1 X47.513 Y76.215 E49.24758
G1 X47.181 Y75.605 E49.27415
G1 X46.514 Y74.808 E49.31393
G1 X45.923 Y74.259 E49.3448
G1 X45.315 Y73.831 E49.37325
G1 X44.257 Y73.343 E49.41784
G1 X42.773 Y72.959 E49.47651
G1 X41.237 Y72.881 E49.53536
G1 X39.594 Y73.133 E49.59898
G1 X38.057 Y73.745 E49.66229
G1 X37.378 Y74.165 E49.69284
G1 X36.737 Y74.733 E49.72562
G1 X36.213 Y75.321 E49.75576
G1 X35.761 Y76.045 E49.78843
G1 X35.678 Y76.281 E49.798
G0 F1620 X35.449 Y76.936
G1 F2400 E47.298
G0 F4320 X34.634 Y76.676
G0 X32.782 Y79.151
G0 X29.519 Y75.54
G1 F2400 E49.798
G1 F1800 X29.55 Y75.556 E49.79927
G1 X29.899 Y75.741 E49.81439
G1 X32.243 Y79.307 E49.9777
G1 X32.859 Y79.262 E50.00134
G1 X36.41 Y71.65 E50.32279
G1 X36.934 Y70.607 E50.36746
G1 X37.115 Y70.317 E50.38054
G1 X37.122 Y70.31 E50.38092
G1 X37.876 Y70.515 E50.41083
G1 X39.198 Y70.857 E50.46308
G1 X40.681 Y71.049 E50.52031
G1 X42.668 Y70.996 E50.59638
G1 X44.651 Y70.574 E50.67397
G1 X46.384 Y69.856 E50.74576
G1 X47.85 Y68.891 E50.81293
G1 X49.212 Y67.533 E50.88653
G1 X50.207 Y65.995 E50.95663
G1 X50.869 Y64.291 E51.0266
G1 X51.026 Y63.414 E51.06069
G1 X51.055 Y62.416 E51.0989
G1 X51.039 Y61.38 E51.13855
G1 X50.866 Y60.4 E51.17664
G1 X50.249 Y58.76 E51.2437
G1 X49.343 Y57.33 E51.30848
G1 X48.177 Y56.108 E51.37312
G1 X46.75 Y55.078 E51.44047
G1 X45.199 Y54.296 E51.50695
G1 X44.707 Y54.042 E51.52814
G1 X44.872 Y53.571 E51.54723
G1 X45.237 Y52.767 E51.58103
G1 X46.116 Y50.881 E51.66066
G1 X45.242 Y50.411 E51.69863
G1 X45.067 Y50.697 E51.71147
G1 X41.141 Y51.663 E51.8662
G1 X40.606 Y51.806 E51.88739
G1 X39.979 Y53.148 E51.94408
G1 X39.622 Y53.842 E51.97394
G1 X39.422 Y54.103 E51.98653
G1 X38.976 Y54.405 E52.00714
G1 X37.748 Y55.265 E52.06451
G1 X36.627 Y56.316 E52.12332
G1 X35.671 Y57.513 E52.18195
G1 X35.018 Y58.621 E52.23117
