;FLAVOR:Marlin
;TIME:1109
;Filament used: 0.659169m
;Layer height: 0.175
;MINX:42.708
;MINY:47.911
;MINZ:0.263
;MAXX:77.294
;MAXY:82.499
;MAXZ:32.033
;Generated with Cura_SteamEngine 4.8
M140 S70
M105
M190 S70
M104 S205
M105
M109 S205
M82 ;absolute extrusion mode
G21;(metric values)
G90;(absolute positioning)
M82;(set extruder to absolute mode)
M107;(start with the fan off)
G28;(Home the printer)
G92 E0;(Reset the extruder to 0)
G0 Z5 E5 F500;(Move up and prime the nozzle)
G0 X-1 Z0;(Move outside the printable area)
G1 Y60 E8 F500;(Draw a priming/wiping line to the rear)
G1 X-1;(Move a little closer to the print area)
G1 Y10 E16 F500;(draw more priming/wiping)
G1 E15 F250;(Small retract)
G92 E0;(Zero the extruder)
G92 E0
G92 E0
G1 F2400 E-2.5
;LAYER_COUNT:182
;LAYER:0
M107
;MESH:activity_light_diffuser.stl
G0 F1800 X50.056 Y52.917 Z0.263
;TYPE:WALL-OUTER
G1 F2400 E0
G1 F1800 X50.709 Y52.419 E0.033
G1 X51.396 Y51.945 E0.06654
G1 X52.096 Y51.518 E0.09949
G1 X52.832 Y51.117 E0.13317
G1 X53.565 Y50.767 E0.16581
G1 X54.336 Y50.448 E0.19934
G1 X55.109 Y50.173 E0.2323
G1 X55.914 Y49.936 E0.26603
G1 X56.709 Y49.746 E0.29887
G1 X57.532 Y49.592 E0.33252
G1 X58.35 Y49.486 E0.36566
G1 X59.168 Y49.421 E0.39863
G1 X60 Y49.398 E0.43208
G1 X60.836 Y49.421 E0.46569
G1 X61.651 Y49.485 E0.49854
G1 X62.468 Y49.592 E0.53165
G1 X63.295 Y49.746 E0.56545
G1 X64.089 Y49.937 E0.59827
G1 X64.89 Y50.173 E0.63182
G1 X65.656 Y50.445 E0.66448
G1 X66.435 Y50.767 E0.69836
G1 X67.171 Y51.12 E0.73116
G1 X67.91 Y51.522 E0.76496
G1 X68.604 Y51.945 E0.79762
G1 X69.294 Y52.421 E0.8313
G1 X69.951 Y52.925 E0.86458
G1 X70.57 Y53.452 E0.89724
G1 X71.174 Y54.024 E0.93067
G1 X71.733 Y54.614 E0.96333
G1 X72.288 Y55.261 E0.99759
G1 X72.786 Y55.915 E1.03062
G1 X73.26 Y56.601 E1.06412
G1 X73.687 Y57.301 E1.09707
G1 X74.088 Y58.037 E1.13075
G1 X74.438 Y58.77 E1.16339
G1 X74.757 Y59.541 E1.19692
G1 X75.032 Y60.314 E1.22989
G1 X75.269 Y61.119 E1.26361
G1 X75.459 Y61.914 E1.29645
G1 X75.613 Y62.737 E1.3301
G1 X75.719 Y63.549 E1.36301
G1 X75.784 Y64.373 E1.39622
G1 X75.807 Y65.2 E1.42946
G1 X75.784 Y66.037 E1.46311
G1 X75.721 Y66.853 E1.496
G1 X75.613 Y67.673 E1.52923
G1 X75.459 Y68.5 E1.56304
G1 X75.268 Y69.294 E1.59585
G1 X75.032 Y70.095 E1.62941
G1 X74.76 Y70.861 E1.66207
G1 X74.438 Y71.64 E1.69594
G1 X74.085 Y72.376 E1.72874
G1 X73.683 Y73.115 E1.76255
G1 X73.26 Y73.809 E1.79521
G1 X72.79 Y74.491 E1.82849
G1 X72.28 Y75.156 E1.86216
G1 X71.753 Y75.775 E1.89483
G1 X71.181 Y76.379 E1.92826
G1 X70.591 Y76.938 E1.96092
G1 X69.945 Y77.492 E1.99512
G1 X69.291 Y77.991 E2.02817
G1 X68.604 Y78.465 E2.06171
G1 X67.904 Y78.892 E2.09466
G1 X67.168 Y79.293 E2.12834
G1 X66.435 Y79.643 E2.16098
G1 X65.664 Y79.962 E2.19451
G1 X64.891 Y80.237 E2.22748
G1 X64.086 Y80.474 E2.2612
G1 X63.291 Y80.664 E2.29404
G1 X62.468 Y80.818 E2.32769
G1 X61.65 Y80.924 E2.36083
G1 X60.832 Y80.989 E2.39381
G1 X60 Y81.012 E2.42725
G1 X59.164 Y80.989 E2.46086
G1 X58.349 Y80.925 E2.49371
G1 X57.532 Y80.818 E2.52682
G1 X56.705 Y80.664 E2.56062
G1 X55.911 Y80.473 E2.59344
G1 X55.11 Y80.237 E2.62699
G1 X54.344 Y79.965 E2.65966
G1 X53.565 Y79.643 E2.69353
G1 X52.829 Y79.29 E2.72633
G1 X52.09 Y78.888 E2.76013
G1 X51.396 Y78.465 E2.79279
G1 X50.706 Y77.989 E2.82648
G1 X50.049 Y77.485 E2.85975
G1 X49.428 Y76.956 E2.89253
G1 X48.819 Y76.379 E2.92624
G1 X48.267 Y75.796 E2.9585
G1 X47.712 Y75.149 E2.99276
G1 X47.214 Y74.496 E3.02576
G1 X46.74 Y73.809 E3.0593
G1 X46.312 Y73.107 E3.09233
G1 X45.912 Y72.373 E3.12592
G1 X45.562 Y71.64 E3.15856
G1 X45.243 Y70.869 E3.19209
G1 X44.968 Y70.095 E3.2251
G1 X44.731 Y69.291 E3.25878
G1 X44.541 Y68.496 E3.29163
G1 X44.387 Y67.673 E3.32527
G1 X44.28 Y66.852 E3.35854
G1 X44.216 Y66.037 E3.39139
G1 X44.193 Y65.21 E3.42464
G1 X44.216 Y64.369 E3.45844
G1 X44.279 Y63.558 E3.49113
G1 X44.387 Y62.737 E3.5244
G1 X44.541 Y61.91 E3.55821
G1 X44.732 Y61.116 E3.59102
G1 X44.968 Y60.315 E3.62458
G1 X45.24 Y59.549 E3.65724
G1 X45.562 Y58.77 E3.69111
G1 X45.915 Y58.034 E3.72391
G1 X46.317 Y57.295 E3.75772
G1 X46.74 Y56.601 E3.79038
G1 X47.21 Y55.92 E3.82363
G1 X47.72 Y55.254 E3.85734
G1 X48.247 Y54.635 E3.89
G1 X48.819 Y54.031 E3.92343
G1 X49.409 Y53.472 E3.95609
G1 X49.529 Y53.369 E3.96244
G0 F1620 X50.056 Y52.917
G0 F1800 X50.215 Y52.796
G1 F2400 E1.46244
G0 F1800 X50.266 Y52.864
G0 X60.024 Y65.177
;TYPE:SKIN
G1 F2400 E3.96244
G1 F1800 X60.04 Y65.225 E3.96448
G1 X59.998 Y65.248 E3.9664
G1 X59.987 Y65.247 E3.96684
G1 X59.976 Y65.239 E3.96739
G1 X60.003 Y65.165 E3.97056
G1 X60.014 Y65.171 E3.97106
G0 F1620 X60.024 Y65.177
G0 F1800 X60.338 Y65.016
G1 X60.397 Y65.182 E3.97814
G1 X60.394 Y65.276 E3.98192
G1 X60.378 Y65.333 E3.9843
G1 X60.326 Y65.433 E3.98883
G1 X60.305 Y65.46 E3.9902
G1 X60.245 Y65.51 E3.99334
G1 X60.159 Y65.562 E3.99738
G1 X60.072 Y65.593 E4.00109
G1 X60.032 Y65.6 E4.00272
G1 X59.942 Y65.596 E4.00634
G1 X59.866 Y65.584 E4.00943
G1 X59.817 Y65.558 E4.01166
G1 X59.702 Y65.469 E4.01751
G1 X59.676 Y65.439 E4.0191
G1 X59.641 Y65.378 E4.02193
G1 X59.61 Y65.291 E4.02564
G1 X59.606 Y65.271 E4.02646
G1 X59.605 Y65.239 E4.02774
G1 X59.71 Y64.947 E4.04021
G1 X59.765 Y64.882 E4.04363
G1 X59.835 Y64.844 E4.04684
G1 X59.908 Y64.818 E4.04995
G1 X59.958 Y64.811 E4.05198
G1 X59.991 Y64.81 E4.0533
G1 X60.036 Y64.812 E4.05511
G1 X60.074 Y64.817 E4.05665
G1 X60.139 Y64.841 E4.05944
G1 X60.228 Y64.89 E4.06352
G0 F1620 X60.241 Y64.897
G0 X60.277 Y64.927
G0 X60.338 Y65.016
G0 F1800 X60.285 Y64.522
G1 X60.439 Y64.606 E4.07057
G1 X60.54 Y64.692 E4.0759
G1 X60.653 Y64.856 E4.0839
G1 X60.742 Y65.105 E4.09453
G1 X60.748 Y65.171 E4.09719
G1 X60.742 Y65.329 E4.10355
G1 X60.705 Y65.462 E4.10909
G1 X60.619 Y65.627 E4.11657
G1 X60.572 Y65.687 E4.11963
G1 X60.55 Y65.711 E4.12094
G1 X60.453 Y65.794 E4.12607
G1 X60.311 Y65.879 E4.13272
G1 X60.155 Y65.935 E4.13938
G1 X60.067 Y65.949 E4.14296
G1 X60.018 Y65.95 E4.14493
G1 X59.907 Y65.945 E4.1494
G1 X59.793 Y65.927 E4.15403
G1 X59.755 Y65.916 E4.15562
G1 X59.712 Y65.899 E4.15748
G1 X59.625 Y65.852 E4.16146
G1 X59.477 Y65.737 E4.16899
G1 X59.449 Y65.711 E4.17052
G1 X59.402 Y65.658 E4.17337
G1 X59.387 Y65.638 E4.17437
G1 X59.351 Y65.579 E4.17715
G1 X59.32 Y65.519 E4.17986
G1 X59.27 Y65.382 E4.18572
G1 X59.257 Y65.307 E4.18878
G1 X59.253 Y65.183 E4.19377
G1 X59.399 Y64.775 E4.21118
G1 X59.407 Y64.762 E4.2118
G1 X59.514 Y64.637 E4.21841
G1 X59.563 Y64.594 E4.22103
G1 X59.693 Y64.523 E4.22698
G1 X59.826 Y64.476 E4.23265
G1 X59.927 Y64.462 E4.23674
G1 X59.962 Y64.46 E4.23815
G0 F1620 X59.995 Y64.46
G0 X60.068 Y64.463
G0 X60.154 Y64.475
G0 X60.285 Y64.522
G0 F1800 X60.431 Y64.203
G1 X60.64 Y64.317 E4.24772
G1 X60.8 Y64.453 E4.25616
G1 X60.961 Y64.687 E4.26757
G1 X60.972 Y64.707 E4.26849
G1 X61.084 Y65.02 E4.28185
G1 X61.092 Y65.078 E4.2842
G1 X61.098 Y65.171 E4.28794
G1 X61.091 Y65.371 E4.29599
G1 X61.077 Y65.436 E4.29866
G1 X61.036 Y65.576 E4.30452
G1 X61.014 Y65.629 E4.30683
G1 X60.913 Y65.819 E4.31547
G1 X60.838 Y65.916 E4.3204
G1 X60.791 Y65.966 E4.32316
G1 X60.659 Y66.079 E4.33014
G1 X60.463 Y66.197 E4.33933
G1 X60.241 Y66.276 E4.3488
G1 X60.1 Y66.298 E4.35454
G1 X60.013 Y66.301 E4.35803
G1 X59.873 Y66.294 E4.36367
G1 X59.774 Y66.28 E4.36768
G1 X59.716 Y66.269 E4.37006
G1 X59.636 Y66.246 E4.3734
G1 X59.57 Y66.219 E4.37627
G1 X59.432 Y66.145 E4.38256
G1 X59.253 Y66.006 E4.39167
G1 X59.196 Y65.953 E4.39479
G1 X59.133 Y65.882 E4.39861
G1 X59.096 Y65.833 E4.40107
G1 X59.048 Y65.754 E4.40479
G1 X58.998 Y65.658 E4.40914
G1 X58.935 Y65.486 E4.4165
G1 X58.929 Y65.464 E4.41742
G1 X58.908 Y65.34 E4.42247
G1 X58.901 Y65.127 E4.43103
G1 X59.081 Y64.624 E4.4525
G1 X59.126 Y64.552 E4.45591
G1 X59.263 Y64.391 E4.46441
G1 X59.355 Y64.311 E4.46931
G1 X59.373 Y64.299 E4.47018
G1 X59.549 Y64.203 E4.47823
G1 X59.745 Y64.134 E4.48658
G1 X59.896 Y64.113 E4.49271
G1 X59.955 Y64.111 E4.49508
G0 F1620 X59.995 Y64.11
G0 X60.092 Y64.113
G0 X60.239 Y64.134
G0 X60.431 Y64.203
G0 F1800 X60.572 Y63.881
G1 X60.841 Y64.028 E4.5074
G1 X61.061 Y64.215 E4.519
G1 X61.259 Y64.502 E4.53301
G1 X61.294 Y64.566 E4.53594
G1 X61.422 Y64.925 E4.55126
G1 X61.427 Y64.944 E4.55205
G1 X61.439 Y65.029 E4.5555
G1 X61.449 Y65.168 E4.5611
G1 X61.44 Y65.415 E4.57103
G1 X61.415 Y65.529 E4.57572
G1 X61.387 Y65.631 E4.57997
G1 X61.368 Y65.689 E4.58242
G1 X61.329 Y65.783 E4.58651
G1 X61.231 Y65.969 E4.59496
G1 X61.202 Y66.018 E4.59725
G1 X61.104 Y66.145 E4.60369
G1 X61.031 Y66.222 E4.60796
G1 X60.865 Y66.364 E4.61673
G1 X60.656 Y66.49 E4.62654
G1 X60.606 Y66.518 E4.62884
G1 X60.327 Y66.617 E4.64074
G1 X60.131 Y66.647 E4.64871
G1 X60.009 Y66.651 E4.65361
G1 X59.849 Y66.644 E4.66005
G1 X59.709 Y66.624 E4.66573
G1 X59.635 Y66.61 E4.66876
G1 X59.518 Y66.576 E4.67365
G1 X59.426 Y66.539 E4.67764
G1 X59.24 Y66.439 E4.68612
G1 X59.024 Y66.272 E4.69709
G1 X58.947 Y66.199 E4.70136
G1 X58.865 Y66.107 E4.70631
G1 X58.807 Y66.031 E4.71015
G1 X58.738 Y65.917 E4.71551
G1 X58.677 Y65.801 E4.72077
G1 X58.602 Y65.596 E4.72954
G1 X58.588 Y65.545 E4.73167
G1 X58.559 Y65.375 E4.7386
G1 X58.55 Y65.114 E4.74909
G1 X58.561 Y65.038 E4.75218
G1 X58.763 Y64.473 E4.77629
G1 X58.84 Y64.348 E4.78219
G1 X59.016 Y64.142 E4.79308
G1 X59.138 Y64.036 E4.79957
G1 X59.196 Y63.997 E4.80238
G1 X59.406 Y63.882 E4.812
G1 X59.6 Y63.813 E4.82028
G1 X59.671 Y63.791 E4.82326
G1 X59.864 Y63.764 E4.83109
G1 X59.941 Y63.761 E4.83419
G0 F1620 X59.996 Y63.759
G0 X60.125 Y63.764
G0 X60.323 Y63.792
G0 X60.572 Y63.881
G0 F1800 X61.001 Y63.716
G1 X61.043 Y63.741 E4.83615
G1 X61.307 Y63.963 E4.85001
G1 X61.34 Y64.003 E4.8521
G1 X61.557 Y64.317 E4.86744
G1 X61.616 Y64.425 E4.87238
G1 X61.756 Y64.817 E4.88911
G1 X61.772 Y64.879 E4.89168
G1 X61.786 Y64.981 E4.89582
G1 X61.8 Y65.162 E4.90311
G1 X61.79 Y65.443 E4.91441
G1 X61.782 Y65.49 E4.91633
G1 X61.753 Y65.622 E4.92176
G1 X61.725 Y65.724 E4.92601
G1 X61.697 Y65.806 E4.92949
G1 X61.644 Y65.937 E4.93517
G1 X61.537 Y66.14 E4.94439
G1 X61.493 Y66.214 E4.94785
G1 X61.374 Y66.368 E4.95567
G1 X61.271 Y66.477 E4.9617
G1 X61.067 Y66.651 E4.97247
G1 X60.837 Y66.79 E4.98327
G1 X60.752 Y66.838 E4.98719
G1 X60.416 Y66.957 E5.00151
G1 X60.329 Y66.972 E5.00506
G1 X60.156 Y66.997 E5.01209
G1 X60.006 Y67.002 E5.01812
G1 X59.823 Y66.994 E5.02548
G1 X59.644 Y66.968 E5.03275
G1 X59.554 Y66.951 E5.03643
G1 X59.414 Y66.91 E5.04229
G1 X59.36 Y66.891 E5.04459
G1 X59.286 Y66.86 E5.04781
G1 X59.231 Y66.833 E5.05027
G1 X59.056 Y66.738 E5.05828
G1 X58.791 Y66.534 E5.07171
G1 X58.691 Y66.439 E5.07726
G1 X58.603 Y66.34 E5.08258
G1 X58.516 Y66.226 E5.08834
G1 X58.43 Y66.083 E5.09505
G1 X58.361 Y65.952 E5.101
G1 X58.313 Y65.828 E5.10634
G1 X58.269 Y65.703 E5.11166
G1 X58.244 Y65.612 E5.11546
G1 X58.22 Y65.478 E5.12093
G1 X58.21 Y65.404 E5.12393
G1 X58.199 Y65.139 E5.13459
G1 X58.201 Y65.083 E5.13684
G1 X58.219 Y64.953 E5.14211
G1 X58.444 Y64.324 E5.16895
G1 X58.556 Y64.142 E5.17754
G1 X58.769 Y63.892 E5.19074
G1 X58.923 Y63.759 E5.19892
G1 X59.013 Y63.698 E5.20329
G1 X59.263 Y63.561 E5.21474
G1 X59.491 Y63.48 E5.22446
G1 X59.596 Y63.448 E5.22887
G1 X59.832 Y63.415 E5.23845
G1 X59.996 Y63.408 E5.24505
G1 X60.158 Y63.415 E5.25156
G1 X60.366 Y63.445 E5.26001
G0 F1620 X60.393 Y63.448
G0 X60.427 Y63.457
G0 X60.713 Y63.559
G0 X61.001 Y63.716
G0 F1800 X61.182 Y63.416
G1 X61.245 Y63.454 E5.26296
G1 X61.554 Y63.714 E5.27919
G1 X61.62 Y63.792 E5.2833
G1 X61.855 Y64.132 E5.2999
G1 X61.938 Y64.284 E5.30686
G1 X62.092 Y64.715 E5.32525
G1 X62.116 Y64.811 E5.32923
G1 X62.133 Y64.933 E5.33418
G1 X62.151 Y65.155 E5.34313
G1 X62.139 Y65.479 E5.35616
G1 X62.125 Y65.559 E5.35942
G1 X62.093 Y65.706 E5.36547
G1 X62.056 Y65.838 E5.37098
G1 X62.022 Y65.937 E5.37518
G1 X61.963 Y66.083 E5.38151
G1 X61.837 Y66.321 E5.39233
G1 X61.784 Y66.409 E5.39646
G1 X61.64 Y66.596 E5.40594
G1 X61.516 Y66.728 E5.41322
G1 X61.273 Y66.935 E5.42605
G1 X61.009 Y67.095 E5.43845
G1 X60.897 Y67.158 E5.44362
G1 X60.518 Y67.292 E5.45977
G1 X60.493 Y67.299 E5.46081
G1 X60.387 Y67.318 E5.46514
G1 X60.189 Y67.346 E5.47318
G1 X60.003 Y67.352 E5.48065
G1 X59.797 Y67.344 E5.48894
G1 X59.577 Y67.312 E5.49787
G1 X59.484 Y67.294 E5.50168
G1 X59.299 Y67.241 E5.50941
G1 X59.233 Y67.218 E5.51222
G1 X59.145 Y67.181 E5.51606
G1 X59.076 Y67.147 E5.51915
G1 X58.861 Y67.03 E5.52898
G1 X58.563 Y66.801 E5.54408
G1 X58.441 Y66.684 E5.55088
G1 X58.335 Y66.565 E5.55728
G1 X58.225 Y66.421 E5.56456
G1 X58.127 Y66.258 E5.5722
G1 X58.044 Y66.101 E5.57934
G1 X57.987 Y65.955 E5.58564
G1 X57.939 Y65.82 E5.5914
G1 X57.903 Y65.69 E5.59682
G1 X57.876 Y65.54 E5.60294
G1 X57.86 Y65.429 E5.60745
G1 X57.848 Y65.141 E5.61903
G1 X57.851 Y65.058 E5.62237
G1 X57.879 Y64.864 E5.63024
G1 X58.125 Y64.175 E5.65964
G1 X58.272 Y63.936 E5.67092
G1 X58.52 Y63.645 E5.68628
G1 X58.715 Y63.477 E5.69662
G1 X58.826 Y63.401 E5.70203
G1 X59.1 Y63.251 E5.71458
G1 X59.131 Y63.236 E5.71597
G1 X59.374 Y63.15 E5.72632
G1 X59.521 Y63.106 E5.73249
G1 X59.807 Y63.065 E5.7441
G1 X59.996 Y63.058 E5.7517
G1 X60.184 Y63.065 E5.75926
G1 X60.468 Y63.106 E5.77079
G1 X60.527 Y63.12 E5.77323
G1 X60.552 Y63.129 E5.77429
G0 F1620 X60.851 Y63.236
G0 X61.182 Y63.416
G0 F1800 X61.349 Y63.108
G1 X61.449 Y63.169 E5.779
G1 X61.791 Y63.457 E5.79697
G1 X61.825 Y63.493 E5.79896
G1 X61.896 Y63.576 E5.80335
G1 X62.153 Y63.947 E5.82148
G1 X62.26 Y64.143 E5.83045
G1 X62.427 Y64.61 E5.85038
G1 X62.461 Y64.75 E5.85617
G1 X62.48 Y64.884 E5.86161
G1 X62.502 Y65.149 E5.8723
G1 X62.488 Y65.515 E5.88702
G1 X62.467 Y65.636 E5.89195
G1 X62.434 Y65.783 E5.898
G1 X62.387 Y65.953 E5.90509
G1 X62.347 Y66.068 E5.90998
G1 X62.284 Y66.224 E5.91674
G1 X62.265 Y66.263 E5.91849
G1 X62.136 Y66.503 E5.92944
G1 X62.075 Y66.603 E5.93414
G1 X61.904 Y66.827 E5.94547
G1 X61.756 Y66.984 E5.95414
G1 X61.481 Y67.218 E5.96865
G1 X61.18 Y67.401 E5.9828
G1 X61.044 Y67.477 E5.98906
G1 X60.627 Y67.625 E6.00684
G1 X60.573 Y67.64 E6.0091
G1 X60.436 Y67.665 E6.01469
G1 X60.222 Y67.695 E6.02337
G1 X60.001 Y67.703 E6.03226
G1 X59.764 Y67.693 E6.04179
G1 X59.518 Y67.658 E6.05178
G1 X59.41 Y67.637 E6.0562
G1 X59.184 Y67.572 E6.06565
G1 X59.118 Y67.549 E6.06846
G1 X58.99 Y67.495 E6.07404
G1 X58.911 Y67.456 E6.07758
G1 X58.67 Y67.325 E6.0886
G1 X58.335 Y67.068 E6.10557
G1 X58.189 Y66.928 E6.1137
G1 X58.062 Y66.784 E6.12141
G1 X57.938 Y66.622 E6.12961
G1 X57.82 Y66.428 E6.13873
G1 X57.747 Y66.291 E6.14497
G1 X57.723 Y66.241 E6.1472
G1 X57.661 Y66.083 E6.15402
G1 X57.605 Y65.924 E6.1608
G1 X57.563 Y65.774 E6.16705
G1 X57.529 Y65.589 E6.17461
G1 X57.511 Y65.462 E6.17977
G1 X57.498 Y65.143 E6.1926
G1 X57.502 Y65.025 E6.19734
G1 X57.536 Y64.784 E6.20712
G1 X57.809 Y64.022 E6.23965
G1 X57.991 Y63.726 E6.25361
G1 X58.267 Y63.401 E6.27074
G1 X58.501 Y63.2 E6.28314
G1 X58.645 Y63.101 E6.29016
G1 X58.943 Y62.938 E6.30381
G1 X58.993 Y62.913 E6.30606
G1 X59.264 Y62.817 E6.31761
G1 X59.442 Y62.765 E6.32506
G1 X59.489 Y62.756 E6.32698
G1 X59.774 Y62.716 E6.33855
G1 X59.996 Y62.708 E6.34747
G1 X60.217 Y62.716 E6.35636
G1 X60.527 Y62.76 E6.36894
G1 X60.626 Y62.784 E6.37304
G1 X60.721 Y62.818 E6.37709
G0 F1620 X60.999 Y62.918
G0 X61.349 Y63.108
G0 F1800 X61.516 Y62.8
G1 X61.657 Y62.886 E6.38373
G1 X62.027 Y63.198 E6.40317
G1 X62.077 Y63.25 E6.40607
G1 X62.176 Y63.365 E6.41217
G1 X62.451 Y63.762 E6.43158
G1 X62.582 Y64.002 E6.44256
G1 X62.762 Y64.507 E6.46411
G1 X62.806 Y64.685 E6.47148
G1 X62.827 Y64.836 E6.4776
G1 X62.851 Y65.119 E6.48901
G1 X62.853 Y65.178 E6.49139
G1 X62.837 Y65.55 E6.50635
G1 X62.809 Y65.713 E6.51299
G1 X62.776 Y65.86 E6.51905
G1 X62.718 Y66.068 E6.52773
G1 X62.678 Y66.183 E6.53262
G1 X62.605 Y66.363 E6.54042
G1 X62.578 Y66.421 E6.54299
G1 X62.436 Y66.684 E6.555
G1 X62.366 Y66.8 E6.56045
G1 X62.171 Y67.054 E6.57332
G1 X62 Y67.236 E6.58335
G1 X61.685 Y67.503 E6.59994
G1 X61.356 Y67.704 E6.61544
G1 X61.188 Y67.797 E6.62315
G1 X60.733 Y67.959 E6.64256
G1 X60.648 Y67.983 E6.64611
G1 X60.497 Y68.01 E6.65227
G1 X60.253 Y68.044 E6.66217
G1 X60 Y68.053 E6.67235
G1 X59.74 Y68.043 E6.6828
G1 X59.453 Y68.002 E6.69445
G1 X59.332 Y67.979 E6.6994
G1 X59.069 Y67.903 E6.7104
G1 X59.003 Y67.88 E6.71321
G1 X58.835 Y67.809 E6.72054
G1 X58.756 Y67.77 E6.72408
G1 X58.475 Y67.617 E6.73694
G1 X58.107 Y67.335 E6.75557
